server/reference_tones/gold/gold.cube
LUT_3D_SIZE 16
0.015686 0.015686 0.015686
0.061177 0.012549 0.012549
0.102745 0.015686 0.010196
0.166275 0.015686 0.015686
0.214117 0.014902 0.010981
0.278431 0.011765 0.011765
0.344313 0.011765 0.010981
0.427451 0.007843 0.003922
0.501961 0.001569 0.001569
0.595294 0.000000 0.000000
0.690196 0.003922 0.000000
0.784314 0.000000 0.000784
0.870588 0.002353 0.000000
0.959215 0.000000 0.003922
0.996078 0.000000 0.000000
0.996078 0.000000 0.007765
0.019608 0.049412 0.017255
0.062431 0.051137 0.023372
0.109333 0.050196 0.015843
0.158117 0.049883 0.013176
0.216941 0.053176 0.015216
0.280784 0.056471 0.012549
0.354667 0.052549 0.011765
0.427765 0.051294 0.013490
0.507137 0.049883 0.002039
0.600628 0.036079 0.000000
0.690980 0.016471 0.000000
0.786981 0.003138 0.000628
0.870902 0.002667 0.000314
0.956392 0.001883 0.000000
0.996078 0.000000 0.000000
0.996078 0.000777 0.000000
0.033726 0.087059 0.038431
0.059451 0.085490 0.035608
0.109333 0.087686 0.038275
0.166274 0.092392 0.022588
0.220549 0.097726 0.016784
0.286275 0.104313 0.018039
0.361098 0.101647 0.016471
0.434980 0.105882 0.004863
0.521569 0.107451 0.000000
0.607530 0.104313 0.000000
0.704314 0.100392 0.002353
0.793569 0.090824 0.002667
0.882353 0.072157 0.001569
0.957490 0.048000 0.000941
0.998117 0.013647 0.005490
0.997647 0.005506 0.000000
0.043922 0.126275 0.054902
0.064000 0.124706 0.053333
0.105255 0.127059 0.049412
0.159529 0.135686 0.045647
0.229961 0.138353 0.037804
0.295686 0.149804 0.018039
0.370510 0.160471 0.006275
0.448000 0.164235 0.001882
0.536000 0.169255 0.001412
0.614275 0.173804 0.002824
0.713725 0.174118 0.001569
0.796863 0.173333 0.000941
0.884863 0.160784 0.004392
0.966745 0.154353 0.000941
0.998431 0.138823 0.001255
0.997647 0.130196 0.002353
0.053333 0.170980 0.070588
0.074353 0.166902 0.066981
0.101647 0.169098 0.067137
0.151843 0.178667 0.069176
0.216471 0.192470 0.062275
0.289412 0.200785 0.048627
0.375843 0.214118 0.013333
0.460863 0.229804 0.000000
0.547451 0.239215 0.001255
0.640314 0.245804 0.000941
0.724706 0.247843 0.003922
0.813334 0.247059 0.000157
0.896784 0.240470 0.000000
0.973333 0.232941 0.002510
1.000000 0.227451 0.003138
0.999969 0.218086 0.000784
0.058824 0.219608 0.086275
0.079215 0.222745 0.086275
0.108235 0.216471 0.086275
0.145882 0.224314 0.087059
0.201569 0.234510 0.083137
0.274510 0.258824 0.074510
0.357647 0.267451 0.080000
0.469804 0.291765 0.011765
0.558432 0.309804 0.001569
0.654118 0.317647 0.000000
0.745098 0.321569 0.000000
0.824314 0.325490 0.000000
0.907451 0.317647 0.001569
0.981961 0.313725 0.000000
0.992941 0.310588 0.000784
1.000000 0.294196 0.007804
0.052549 0.276079 0.099608
0.071687 0.271216 0.092392
0.109804 0.271059 0.096471
0.144784 0.273098 0.104627
0.204078 0.284079 0.105255
0.269804 0.302745 0.101177
0.353726 0.327372 0.090824
0.447372 0.339922 0.088785
0.554980 0.366275 0.020235
0.662588 0.385098 0.006274
0.756079 0.399215 0.000000
0.841883 0.405804 0.000000
0.916863 0.395608 0.001412
0.992157 0.394510 0.000000
0.994353 0.386353 0.007216
1.000000 0.382761 0.001553
0.036079 0.333333 0.105882
0.067608 0.335059 0.112627
0.101647 0.330196 0.116235
0.144000 0.326902 0.120000
0.197019 0.333176 0.125490
0.263530 0.353726 0.116078
0.339922 0.375686 0.112157
0.432313 0.403451 0.098039
0.530196 0.418039 0.099138
0.649882 0.451137 0.034510
0.756863 0.470588 0.003922
0.845177 0.476863 0.000627
0.930039 0.475451 0.000000
0.996549 0.475922 0.002196
0.998117 0.465569 0.002824
0.993741 0.455702 0.000016
0.001569 0.396079 0.120784
0.033569 0.394510 0.123451
0.085020 0.391372 0.124863
0.137882 0.384157 0.130510
0.178039 0.389333 0.130196
0.246274 0.400784 0.135686
0.322353 0.425569 0.127530
0.408314 0.456784 0.120941
0.515451 0.491608 0.112627
0.623530 0.507137 0.111372
0.738823 0.530981 0.065882
0.846745 0.546980 0.005333
0.935686 0.551529 0.000941
0.996235 0.548079 0.003765
0.997176 0.543216 0.000000
1.000000 0.529475 0.003883
0.000000 0.461961 0.135686
0.000784 0.459608 0.133333
0.039843 0.455687 0.131137
0.110745 0.453647 0.143843
0.170039 0.447686 0.143843
0.229020 0.456471 0.145882
0.301020 0.481412 0.144941
0.389647 0.512470 0.137882
0.491608 0.544941 0.138823
0.606432 0.579765 0.127373
0.709804 0.592941 0.137255
0.826667 0.612706 0.128471
0.922666 0.614902 0.018824
0.997177 0.619451 0.005961
0.993726 0.611921 0.000628
0.996862 0.601600 0.000000
0.000000 0.541176 0.137255
0.000784 0.537255 0.141960
0.006275 0.534902 0.148235
0.042353 0.530980 0.149020
0.144314 0.526274 0.165490
0.196078 0.525490 0.152941
0.290196 0.542745 0.163922
0.376470 0.573333 0.163137
0.473726 0.602353 0.156863
0.574902 0.634510 0.160000
0.698039 0.670588 0.160784
0.800000 0.675294 0.178040
0.903530 0.682353 0.200784
0.991372 0.690196 0.130196
1.000000 0.683137 0.003137
1.000000 0.674549 0.000039
0.003922 0.619608 0.151373
0.003138 0.619921 0.156549
0.005490 0.618039 0.157647
0.003138 0.612078 0.154667
0.085334 0.610040 0.164863
0.180392 0.600784 0.167843
0.267137 0.612549 0.177412
0.358902 0.639530 0.181177
0.452863 0.664941 0.184470
0.560157 0.689726 0.191529
0.666667 0.721569 0.200784
0.782902 0.747608 0.212863
0.876706 0.757647 0.233412
0.970039 0.752628 0.277804
0.999843 0.751530 0.233568
0.996894 0.742753 0.155443
0.003922 0.705882 0.177255
0.002667 0.705882 0.177255
0.002981 0.705882 0.181961
0.000000 0.702118 0.182432
0.013177 0.700863 0.186196
0.153726 0.696470 0.199216
0.244863 0.689098 0.206275
0.343216 0.707765 0.211608
0.440471 0.731608 0.214275
0.539137 0.756078 0.225098
0.645490 0.778823 0.238431
0.751686 0.804706 0.254902
0.855843 0.820549 0.267608
0.948235 0.829333 0.299608
0.998431 0.814902 0.358588
0.997647 0.806274 0.334980
0.002353 0.800000 0.217255
0.001883 0.799529 0.216784
0.001569 0.797490 0.222745
0.000000 0.796079 0.230588
0.002196 0.793569 0.231216
0.144314 0.786666 0.239216
0.240314 0.781176 0.248784
0.335843 0.790745 0.258039
0.439843 0.808471 0.263373
0.541020 0.826510 0.281569
0.637647 0.844706 0.298824
0.728314 0.860392 0.310274
0.826667 0.875137 0.335215
0.923765 0.889255 0.363765
0.992314 0.890980 0.388549
0.997670 0.869027 0.445396
0.003922 0.886274 0.294902
0.000000 0.890196 0.298039
0.003294 0.889412 0.298039
0.000784 0.887529 0.309490
0.091137 0.885961 0.309647
0.213333 0.882353 0.320784
0.291608 0.883922 0.326588
0.370667 0.878431 0.339765
0.460392 0.892078 0.353882
0.558275 0.898667 0.367843
0.639216 0.910588 0.391372
0.727530 0.921568 0.398275
0.816157 0.927059 0.422431
0.895216 0.937882 0.452549
0.975372 0.942745 0.472157
1.000000 0.941216 0.491765
0.226353 0.968470 0.434902
0.243686 0.971569 0.442666
0.271231 0.966157 0.440392
0.302008 0.968431 0.446643
0.348423 0.969247 0.453718
0.391647 0.964588 0.466236
0.448902 0.965318 0.467906
0.499961 0.960627 0.488235
0.566683 0.966855 0.508494
0.628800 0.973169 0.512596
0.701765 0.976314 0.529020
0.762259 0.976361 0.548589
0.832071 0.980290 0.561906
0.891765 0.985012 0.572220
0.958431 0.991977 0.594870
0.999960 0.988234 0.599725
0.007843 0.015686 0.063529
0.057255 0.015529 0.052706
0.095686 0.024313 0.057255
0.154196 0.023058 0.055686
0.213647 0.018196 0.061961
0.278431 0.019608 0.061961
0.344941 0.014902 0.058510
0.421177 0.005490 0.052706
0.509020 0.001255 0.052706
0.592941 0.003138 0.042667
0.685491 0.000784 0.030588
0.779138 0.000157 0.021804
0.869804 0.003922 0.003608
0.955608 0.003608 0.000784
0.996078 0.000000 0.000000
0.996078 0.000000 0.000000
0.017098 0.057883 0.054117
0.061930 0.054588 0.060141
0.104941 0.052549 0.052141
0.158432 0.054965 0.059953
0.212079 0.055969 0.060612
0.280471 0.053333 0.061334
0.348580 0.049914 0.050855
0.427796 0.049317 0.055247
0.507828 0.042761 0.050227
0.598024 0.024126 0.040627
0.693334 0.006902 0.027294
0.780706 0.003263 0.012957
0.871843 0.003608 0.004016
0.956769 0.001883 0.000596
0.996957 0.000879 0.000879
0.996233 0.000155 0.000155
0.045961 0.093804 0.067608
0.070400 0.090855 0.068361
0.109710 0.092800 0.069208
0.164674 0.095310 0.062526
0.224596 0.098071 0.060738
0.282981 0.102274 0.051451
0.359906 0.099200 0.060455
0.433035 0.103717 0.055216
0.519122 0.101929 0.043169
0.602667 0.099326 0.033067
0.701177 0.092549 0.025255
0.789365 0.079027 0.009663
0.878714 0.057569 0.001380
0.958118 0.026824 0.000000
0.995451 0.007404 0.000878
0.996404 0.000326 0.008737
0.053333 0.133647 0.081255
0.077616 0.129757 0.076581
0.108204 0.131922 0.080721
0.158086 0.138321 0.079216
0.227545 0.143185 0.073067
0.294902 0.150588 0.061804
0.367624 0.158777 0.054369
0.448690 0.164361 0.046494
0.534463 0.165302 0.038243
0.614933 0.167310 0.019984
0.710902 0.168628 0.009883
0.801255 0.163294 0.002980
0.882071 0.157051 0.000000
0.965992 0.149145 0.001255
0.999498 0.132549 0.000063
0.995310 0.120640 0.001553
0.055843 0.179451 0.086275
0.079968 0.174243 0.090196
0.105255 0.174494 0.092298
0.158839 0.178698 0.090698
0.216063 0.192439 0.093616
0.292235 0.198588 0.080627
0.374494 0.219890 0.056816
0.460110 0.229710 0.031467
0.545067 0.235953 0.016282
0.634636 0.239843 0.004988
0.721726 0.243294 0.001725
0.811075 0.240972 0.000000
0.895435 0.237741 0.001004
0.972612 0.230745 0.003043
1.000000 0.225381 0.002165
0.999216 0.215046 0.000784
0.066667 0.227451 0.103530
0.083922 0.224313 0.106666
0.108392 0.223059 0.104314
0.150745 0.226039 0.109333
0.210510 0.238588 0.106510
0.286275 0.254902 0.109804
0.362353 0.267451 0.102118
0.465882 0.288941 0.052079
0.558274 0.309177 0.016785
0.653491 0.316706 0.000000
0.744314 0.320785 0.000000
0.826196 0.320785 0.002510
0.906823 0.315608 0.000471
0.984941 0.310588 0.002824
1.000000 0.305725 0.001412
1.000000 0.291796 0.000000
0.063373 0.282196 0.116549
0.086808 0.278400 0.116926
0.117647 0.277553 0.119122
0.151780 0.273663 0.122071
0.207812 0.285522 0.119310
0.271686 0.303686 0.121098
0.355921 0.329098 0.115168
0.445867 0.341333 0.111749
0.561035 0.369192 0.061616
0.663498 0.385600 0.000502
0.756235 0.397961 0.005647
0.841130 0.402667 0.000878
0.919529 0.398525 0.001945
0.995733 0.389553 0.002887
0.994478 0.386855 0.000753
0.996850 0.379310 0.003119
0.038117 0.343216 0.120471
0.065255 0.338478 0.126368
0.107859 0.335310 0.131451
0.148016 0.330039 0.137882
0.194918 0.336784 0.135121
0.260392 0.357333 0.134117
0.340298 0.377506 0.132517
0.433882 0.409067 0.121569
0.536188 0.423937 0.131357
0.654118 0.451514 0.070745
0.755608 0.469333 0.000314
0.847247 0.474102 0.001067
0.931577 0.476298 0.002196
0.995545 0.474635 0.001945
0.997208 0.463310 0.000565
0.999962 0.454468 0.000000
0.001569 0.401569 0.134745
0.035828 0.398808 0.138761
0.085302 0.396267 0.137098
0.136753 0.391498 0.143937
0.179890 0.387608 0.146541
0.245804 0.402039 0.152000
0.328220 0.426008 0.149930
0.408722 0.456941 0.139482
0.516643 0.492831 0.135090
0.625694 0.508957 0.138635
0.743843 0.529882 0.110431
0.848283 0.545475 0.005145
0.937443 0.551780 0.002071
0.997741 0.545349 0.002573
0.997490 0.543341 0.001255
0.997195 0.528191 0.000041
0.003138 0.467451 0.148236
0.004047 0.466792 0.148361
0.038024 0.463122 0.144816
0.109176 0.457475 0.155451
0.170510 0.452424 0.162228
0.235765 0.459137 0.160314
0.304753 0.485302 0.159279
0.391843 0.512062 0.157835
0.491420 0.544471 0.150682
0.604423 0.580361 0.150494
0.713725 0.592157 0.159216
0.827734 0.609820 0.155765
0.923325 0.622149 0.057004
0.998243 0.616941 0.005584
0.997239 0.614682 0.003263
0.996869 0.600979 0.000621
0.003922 0.544314 0.150589
0.000157 0.538667 0.154039
0.002667 0.535215 0.161568
0.046589 0.535686 0.166117
0.138823 0.530196 0.167686
0.207059 0.523138 0.167059
0.287843 0.545882 0.179608
0.377568 0.572078 0.176471
0.472471 0.604235 0.178981
0.574902 0.636236 0.173961
0.690196 0.669804 0.177255
0.799372 0.678431 0.209412
0.901176 0.685804 0.219608
0.987922 0.690510 0.157177
1.000000 0.681882 0.046118
0.996894 0.670659 0.024275
0.000000 0.624157 0.169412
0.000000 0.621490 0.167372
0.004643 0.618573 0.175373
0.006274 0.616879 0.173741
0.083200 0.614306 0.173678
0.184000 0.608941 0.183529
0.266667 0.611294 0.189333
0.359153 0.638118 0.195074
0.454400 0.667326 0.196047
0.556675 0.691482 0.202886
0.665569 0.719529 0.207059
0.777067 0.752032 0.220329
0.875796 0.756330 0.250604
0.963451 0.756172 0.290949
1.000000 0.751687 0.249725
0.996738 0.740406 0.183638
0.000000 0.712157 0.186353
0.000471 0.706353 0.187765
0.000125 0.706384 0.190117
0.003012 0.704188 0.194541
0.013302 0.701584 0.196518
0.153725 0.696000 0.208000
0.243357 0.694432 0.210290
0.341051 0.709428 0.219514
0.439874 0.734118 0.229208
0.540392 0.757772 0.240314
0.645804 0.780078 0.252549
0.748392 0.801726 0.268110
0.853522 0.822902 0.286118
0.947357 0.826792 0.316047
0.997333 0.815780 0.372424
0.993614 0.806163 0.346311
0.003608 0.800000 0.229490
0.001977 0.798055 0.227859
0.000125 0.800722 0.229584
0.000000 0.796361 0.235733
0.001349 0.790934 0.234227
0.144941 0.785882 0.247529
0.242730 0.786290 0.254902
0.336533 0.791059 0.268831
0.436800 0.810165 0.275545
0.538510 0.824094 0.288439
0.635765 0.842039 0.306824
0.728377 0.861679 0.325866
0.827419 0.876549 0.352847
0.921349 0.890259 0.372392
0.992314 0.889506 0.402008
1.000000 0.864066 0.453134
0.000000 0.890196 0.310118
0.000784 0.889412 0.305475
0.000628 0.889788 0.307043
0.001224 0.889224 0.314635
0.096502 0.887498 0.321004
0.217098 0.884863 0.330196
0.297663 0.883326 0.336596
0.372172 0.880534 0.344628
0.463874 0.888094 0.356204
0.554541 0.898322 0.375843
0.648000 0.909960 0.388863
0.733836 0.919718 0.415435
0.817569 0.929380 0.433976
0.894306 0.933459 0.455498
0.975153 0.943404 0.480471
1.000000 0.939335 0.495705
0.234941 0.968486 0.438894
0.248226 0.973887 0.445861
0.273776 0.967059 0.443075
0.304824 0.967520 0.447646
0.351657 0.969240 0.464979
0.395576 0.968400 0.470086
0.446488 0.967810 0.478200
0.503739 0.965275 0.493542
0.560320 0.966742 0.506515
0.629422 0.971150 0.520063
0.701765 0.976314 0.536863
0.772373 0.980235 0.546591
0.833820 0.982320 0.561557
0.895652 0.984192 0.578502
0.960786 0.987956 0.594508
1.000000 0.992000 0.602187
0.002353 0.013333 0.104313
0.051451 0.013804 0.108862
0.105569 0.015216 0.101333
0.141333 0.032941 0.102745
0.192784 0.033255 0.106196
0.261177 0.024314 0.111373
0.336784 0.001255 0.102118
0.415686 0.000628 0.103059
0.505098 0.000000 0.108549
0.594196 0.001255 0.102902
0.682353 0.000000 0.094118
0.780706 0.001883 0.092863
0.867294 0.001412 0.082823
0.950588 0.000941 0.077490
0.999216 0.001255 0.065569
0.996879 0.000016 0.067420
0.016628 0.060706 0.101176
0.056596 0.056000 0.104816
0.104910 0.055341 0.105255
0.144094 0.066322 0.106573
0.201757 0.057945 0.107262
0.274039 0.050510 0.107608
0.339984 0.046902 0.103467
0.421835 0.035514 0.106416
0.504628 0.024000 0.101145
0.596141 0.004424 0.101114
0.687843 0.000000 0.098353
0.779953 0.001883 0.092298
0.868737 0.000596 0.082321
0.955702 0.001161 0.072314
0.998306 0.000188 0.067357
0.995764 0.002353 0.059018
0.028079 0.101490 0.107451
0.066165 0.099388 0.110525
0.108831 0.099482 0.104157
0.163012 0.096659 0.108078
0.219420 0.097318 0.109490
0.285490 0.097255 0.109019
0.352314 0.095310 0.104313
0.429051 0.097067 0.104282
0.514541 0.090635 0.104031
0.602667 0.087686 0.097412
0.695686 0.073098 0.091608
0.783247 0.055780 0.084424
0.873757 0.022306 0.077898
0.960972 0.006683 0.071341
0.996925 0.000188 0.060737
0.998403 0.000941 0.056941
0.052392 0.143843 0.114196
0.085208 0.139576 0.110243
0.117678 0.137945 0.115545
0.160847 0.141145 0.114635
0.226133 0.147325 0.114823
0.293961 0.148079 0.104157
0.365584 0.153286 0.101145
0.443765 0.159122 0.105349
0.528816 0.156706 0.098416
0.613114 0.161506 0.089537
0.705255 0.156863 0.087686
0.795953 0.154133 0.081663
0.881506 0.143718 0.071749
0.964518 0.132455 0.066133
0.999435 0.122478 0.057882
1.000000 0.104825 0.049257
0.071216 0.186666 0.122510
0.088282 0.185380 0.117521
0.120376 0.180298 0.125114
0.158180 0.184408 0.126055
0.219890 0.192721 0.130729
0.295216 0.205020 0.119529
0.377631 0.215467 0.107608
0.459608 0.220800 0.092236
0.544690 0.228204 0.087718
0.632847 0.231091 0.080628
0.721412 0.236706 0.074667
0.807122 0.233412 0.071122
0.893145 0.229490 0.059608
0.973929 0.224690 0.054306
0.999498 0.217443 0.047153
0.999479 0.210209 0.052336
0.065098 0.240784 0.136470
0.093333 0.231687 0.132079
0.120314 0.233883 0.137098
0.155922 0.227608 0.136470
0.207373 0.244549 0.141176
0.286275 0.261177 0.141961
0.365177 0.268236 0.137255
0.468236 0.288471 0.104471
0.557177 0.304314 0.083137
0.650667 0.308078 0.066510
0.739608 0.313725 0.058823
0.823372 0.313098 0.049098
0.902117 0.310745 0.040941
0.982588 0.307294 0.034667
0.999686 0.301961 0.032157
1.000000 0.294118 0.031372
0.064157 0.290510 0.141019
0.083357 0.287938 0.139639
0.115388 0.286682 0.141521
0.156361 0.280031 0.146039
0.208126 0.290290 0.146949
0.270902 0.308392 0.148706
0.360126 0.328565 0.152000
0.449726 0.345349 0.145851
0.560972 0.372078 0.114196
0.660831 0.385004 0.071310
0.754510 0.392157 0.030274
0.838337 0.396549 0.014181
0.921066 0.392690 0.010353
0.988863 0.391278 0.010353
0.998494 0.381804 0.014557
0.999689 0.372122 0.019134
0.043137 0.349960 0.149961
0.071561 0.347890 0.152534
0.110525 0.345663 0.152471
0.150714 0.341647 0.156612
0.195921 0.336376 0.159404
0.261490 0.358431 0.157019
0.341584 0.381334 0.162855
0.433380 0.410071 0.154981
0.539043 0.425820 0.168345
0.654149 0.454118 0.126902
0.755137 0.467137 0.061333
0.846118 0.472847 0.014243
0.929537 0.476016 0.001882
0.997867 0.470023 0.002541
0.999247 0.460768 0.003482
0.996226 0.452408 0.013635
0.000941 0.411922 0.154040
0.034008 0.406776 0.159216
0.086400 0.407153 0.168000
0.141333 0.399279 0.164612
0.184031 0.394604 0.167372
0.250353 0.408471 0.171765
0.323012 0.428894 0.174463
0.408722 0.459106 0.173019
0.517961 0.492926 0.167278
0.625412 0.509647 0.178792
0.743529 0.533333 0.156078
0.843953 0.547922 0.072690
0.933082 0.551184 0.022588
0.997490 0.546980 0.008879
0.996329 0.541427 0.000000
0.998568 0.528681 0.006599
0.000000 0.475294 0.167216
0.000000 0.476988 0.170510
0.039059 0.470306 0.171765
0.115200 0.465976 0.176094
0.169286 0.464439 0.179388
0.228392 0.463530 0.185255
0.304753 0.485930 0.185569
0.391812 0.512188 0.186478
0.494431 0.545161 0.186604
0.605930 0.580643 0.185035
0.710902 0.592941 0.198117
0.828141 0.611608 0.194886
0.925333 0.622400 0.131577
0.995984 0.620580 0.062494
0.997647 0.613145 0.048188
0.998754 0.599749 0.036740
0.003922 0.549020 0.179608
0.002353 0.550275 0.178667
0.000000 0.546353 0.178196
0.044706 0.544627 0.183686
0.143530 0.538823 0.194510
0.212549 0.527059 0.196078
0.289726 0.546196 0.193725
0.377098 0.573647 0.200470
0.472941 0.604236 0.202667
0.574432 0.635294 0.203922
0.694118 0.666667 0.211765
0.804392 0.679686 0.233255
0.905882 0.688471 0.255686
0.989176 0.692863 0.198588
1.000000 0.684706 0.133020
1.000000 0.672220 0.124713
0.000000 0.627451 0.189019
0.000251 0.628329 0.189961
0.000502 0.627043 0.194290
0.001255 0.622965 0.190431
0.094086 0.618823 0.194541
0.187451 0.610196 0.206275
0.269553 0.612925 0.214369
0.358024 0.638055 0.214212
0.457067 0.665035 0.223153
0.554855 0.692612 0.227922
0.662431 0.721255 0.237490
0.782557 0.747545 0.253961
0.875859 0.757302 0.275890
0.966902 0.755827 0.328878
0.998745 0.753098 0.278933
0.999682 0.743052 0.227805
0.000000 0.713725 0.206902
0.000627 0.713600 0.206902
0.005082 0.711843 0.206934
0.002353 0.709270 0.215153
0.017569 0.703561 0.216627
0.156863 0.701804 0.227608
0.246149 0.694306 0.235828
0.341239 0.709584 0.237083
0.440376 0.731514 0.248690
0.534964 0.759561 0.259420
0.645177 0.781177 0.275137
0.750463 0.803859 0.288690
0.857631 0.825161 0.310808
0.947388 0.827231 0.341867
0.998243 0.815216 0.397898
0.996855 0.812588 0.368745
0.000000 0.802353 0.247059
0.001882 0.802039 0.245490
0.000377 0.801788 0.246494
0.001977 0.799780 0.257506
0.000000 0.797302 0.261584
0.152000 0.791373 0.263059
0.245490 0.789239 0.268518
0.335153 0.788016 0.276769
0.435137 0.808628 0.293177
0.535341 0.825569 0.310055
0.635294 0.845804 0.326431
0.731639 0.859859 0.347169
0.828894 0.875796 0.368784
0.920847 0.888094 0.393631
0.990745 0.890227 0.426447
1.000000 0.868430 0.469597
0.002667 0.891608 0.320471
0.000000 0.890823 0.320439
0.000502 0.891325 0.326400
0.002698 0.888973 0.325459
0.102463 0.888659 0.331325
0.217098 0.885333 0.336313
0.300831 0.882981 0.347921
0.373772 0.878808 0.359529
0.463090 0.887875 0.371169
0.559435 0.902400 0.391906
0.645490 0.912941 0.406275
0.730572 0.920314 0.425098
0.815812 0.929161 0.449412
0.894588 0.935874 0.468863
0.974243 0.941804 0.492172
0.997670 0.939030 0.514779
0.239773 0.973961 0.452180
0.253937 0.972392 0.453857
0.277377 0.968590 0.459613
0.309741 0.970965 0.457349
0.354185 0.969394 0.465971
0.401757 0.966894 0.480337
0.450483 0.966568 0.489585
0.500336 0.964083 0.499852
0.565605 0.965154 0.516905
0.631416 0.970218 0.522994
0.704094 0.974722 0.547028
0.769302 0.977774 0.553241
0.834595 0.982154 0.567529
0.895682 0.986060 0.585858
0.959220 0.990416 0.603404
0.999984 0.991985 0.626989
0.000000 0.020392 0.155294
0.032471 0.013961 0.149019
0.101804 0.016157 0.160628
0.153882 0.018667 0.155764
0.192784 0.037647 0.148078
0.242353 0.055686 0.159216
0.315764 0.036235 0.166745
0.403765 0.002823 0.168000
0.494745 0.000941 0.161098
0.584941 0.001255 0.155294
0.680784 0.000000 0.160784
0.774745 0.002353 0.160314
0.864628 0.000000 0.154353
0.946353 0.001412 0.153568
0.997647 0.002353 0.148078
0.996070 0.003898 0.152133
0.003922 0.065569 0.154353
0.034479 0.056565 0.151718
0.102870 0.057381 0.158369
0.157208 0.055059 0.153976
0.195231 0.071216 0.154227
0.251764 0.078118 0.163451
0.326683 0.060078 0.163357
0.411169 0.019326 0.166714
0.502494 0.002384 0.154290
0.590807 0.000628 0.162478
0.682039 0.001255 0.159529
0.777537 0.002510 0.157427
0.867357 0.002479 0.155890
0.952063 0.001318 0.153474
0.999623 0.001004 0.149961
0.997019 0.003596 0.149321
0.016000 0.106981 0.157647
0.054933 0.104627 0.154447
0.104502 0.098824 0.156737
0.157176 0.099828 0.158714
0.199059 0.109584 0.161223
0.271216 0.102902 0.165177
0.344000 0.093992 0.160126
0.422777 0.081757 0.158933
0.507200 0.075953 0.163357
0.598275 0.058541 0.158337
0.690823 0.035451 0.160000
0.781302 0.010604 0.158023
0.872126 0.002133 0.158274
0.958494 0.000628 0.151184
0.998306 0.001318 0.147984
0.997026 0.001897 0.151809
0.027294 0.152157 0.158902
0.066227 0.149396 0.161349
0.110055 0.150745 0.164580
0.160784 0.147168 0.159749
0.223278 0.145412 0.158494
0.285961 0.145255 0.158432
0.358526 0.147765 0.166055
0.437051 0.148612 0.159435
0.520251 0.147984 0.161412
0.610384 0.144188 0.160753
0.703529 0.140392 0.159529
0.790776 0.131733 0.157584
0.880690 0.123984 0.153694
0.962541 0.110432 0.147231
0.998651 0.099639 0.148894
0.998602 0.091779 0.151035
0.054275 0.198745 0.165019
0.083420 0.197835 0.163921
0.121632 0.197020 0.164267
0.166086 0.191121 0.170259
0.221365 0.198118 0.171576
0.298039 0.205961 0.167843
0.371545 0.211702 0.157334
0.452078 0.216157 0.155420
0.537412 0.219106 0.153380
0.631184 0.220580 0.156392
0.716863 0.224784 0.148392
0.801882 0.220863 0.154573
0.887843 0.216031 0.144031
0.969067 0.214306 0.149616
0.999592 0.208659 0.145317
1.000000 0.202679 0.145438
0.071373 0.249412 0.170980
0.101176 0.250039 0.176941
0.130510 0.246118 0.170510
0.166274 0.241569 0.177255
0.212392 0.243608 0.180549
0.290196 0.264314 0.182745
0.375059 0.277176 0.179294
0.469804 0.289255 0.162196
0.555294 0.298980 0.146667
0.645804 0.301020 0.145725
0.730980 0.305098 0.144314
0.819451 0.303529 0.141333
0.902588 0.301020 0.141804
0.982118 0.299608 0.139765
0.999686 0.296784 0.139608
1.000000 0.289436 0.145098
0.064000 0.309020 0.181019
0.083702 0.303780 0.177506
0.122698 0.302808 0.176314
0.166400 0.296628 0.184439
0.208722 0.294494 0.185349
0.275294 0.311059 0.191372
0.361255 0.334651 0.195325
0.455812 0.347514 0.193443
0.565773 0.372612 0.173835
0.659169 0.385349 0.149082
0.751059 0.387608 0.131608
0.835137 0.388236 0.127059
0.918902 0.386102 0.131043
0.987137 0.385914 0.131921
0.996737 0.380612 0.136314
0.999984 0.370859 0.141024
0.027765 0.363608 0.183843
0.067389 0.362133 0.186071
0.111341 0.362729 0.187357
0.154228 0.355859 0.189741
0.204580 0.346447 0.197020
0.264471 0.359529 0.196235
0.344784 0.383059 0.206933
0.437898 0.413428 0.203859
