server/reference_tones/gold/gold.cube
LUT_3D_SIZE 6
0.015686 0.015686 0.015686
0.166275 0.015686 0.015686
0.344313 0.011765 0.010981
0.595294 0.000000 0.000000
0.870588 0.002353 0.000000
0.996078 0.000000 0.007765
0.043922 0.126275 0.054902
0.159529 0.135686 0.045647
0.370510 0.160471 0.006275
0.614275 0.173804 0.002824
0.884863 0.160784 0.004392
0.997647 0.130196 0.002353
0.052549 0.276079 0.099608
0.144784 0.273098 0.104627
0.353726 0.327372 0.090824
0.662588 0.385098 0.006274
0.916863 0.395608 0.001412
1.000000 0.382761 0.001553
0.000000 0.461961 0.135686
0.110745 0.453647 0.143843
0.301020 0.481412 0.144941
0.606432 0.579765 0.127373
0.922666 0.614902 0.018824
0.996862 0.601600 0.000000
0.003922 0.705882 0.177255
0.000000 0.702118 0.182432
0.244863 0.689098 0.206275
0.539137 0.756078 0.225098
0.855843 0.820549 0.267608
0.997647 0.806274 0.334980
0.226353 0.968470 0.434902
0.302008 0.968431 0.446643
0.448902 0.965318 0.467906
0.628800 0.973169 0.512596
0.832071 0.980290 0.561906
0.999960 0.988234 0.599725
0.000000 0.020392 0.155294
0.153882 0.018667 0.155764
0.315764 0.036235 0.166745
0.584941 0.001255 0.155294
0.864628 0.000000 0.154353
0.996070 0.003898 0.152133
0.027294 0.152157 0.158902
0.160784 0.147168 0.159749
0.358526 0.147765 0.166055
0.610384 0.144188 0.160753
0.880690 0.123984 0.153694
0.998602 0.091779 0.151035
0.064000 0.309020 0.181019
0.166400 0.296628 0.184439
0.361255 0.334651 0.195325
0.659169 0.385349 0.149082
0.918902 0.386102 0.131043
0.999984 0.370859 0.141024
0.001255 0.488471 0.203608
0.119216 0.477867 0.209004
0.306133 0.489255 0.218980
0.606275 0.584251 0.234824
0.923168 0.622431 0.196894
0.999197 0.605999 0.161901
0.002510 0.722039 0.237961
0.001192 0.715326 0.244329
0.249161 0.699639 0.261239
0.543530 0.753192 0.293114
0.857318 0.823467 0.346384
0.997049 0.810226 0.407633
0.246087 0.972392 0.464753
0.317119 0.971746 0.469931
0.456330 0.968136 0.498442
0.631879 0.971594 0.540646
0.830657 0.983552 0.584628
0.999946 0.988196 0.635742
0.000000 0.031373 0.328627
0.124549 0.012863 0.340863
0.344627 0.000628 0.352785
0.512941 0.094118 0.352785
0.816000 0.001883 0.386981
1.000000 0.000000 0.373388
0.000000 0.170980 0.333177
0.093208 0.141585 0.347388
0.357239 0.142902 0.362290
0.537788 0.189020 0.371451
0.842918 0.091263 0.384502
0.999633 0.072677 0.379246
0.000157 0.345098 0.353098
0.115545 0.349271 0.360627
0.363576 0.354980 0.368690
0.626573 0.360377 0.373835
0.890667 0.375686 0.389866
0.998720 0.385694 0.399968
0.000628 0.556079 0.374431
0.144188 0.552627 0.376502
0.338321 0.529976 0.373302
0.612894 0.595984 0.417380
0.920063 0.632314 0.421459
0.999371 0.621678 0.423718
0.002353 0.758745 0.384000
0.001318 0.752784 0.388581
0.284957 0.738478 0.389898
0.534776 0.751906 0.419984
0.857255 0.830682 0.507231
0.998430 0.827635 0.556408
0.278463 0.976353 0.533145
0.337486 0.978662 0.542484
0.469428 0.969316 0.564439
0.631267 0.968469 0.595909
0.838169 0.983685 0.648045
0.999907 0.995090 0.704737
0.000000 0.032157 0.552157
0.000314 0.014275 0.554353
0.327530 0.001255 0.583216
0.589490 0.002510 0.600314
0.783529 0.065098 0.589334
0.999906 0.237616 0.629718
0.002353 0.161569 0.557490
0.000000 0.139420 0.563733
0.313788 0.122384 0.581836
0.594604 0.099545 0.602824
0.791216 0.215435 0.596926
0.999642 0.309310 0.629793
0.000628 0.360628 0.533490
0.000722 0.358902 0.553192
0.278400 0.327875 0.584659
0.605239 0.357333 0.609130
0.794290 0.433537 0.610008
0.998602 0.449868 0.632002
0.003138 0.594039 0.589020
0.000628 0.597742 0.593067
0.315576 0.604330 0.606494
0.615310 0.607718 0.618855
0.875671 0.629396 0.629773
1.000000 0.654080 0.650949
0.004235 0.815843 0.606431
0.020863 0.812078 0.593224
0.383624 0.803137 0.605020
0.564800 0.768690 0.591937
0.860424 0.831623 0.677930
0.997653 0.852226 0.705264
0.383036 0.988149 0.671232
0.431139 0.986093 0.678543
0.506787 0.986654 0.668055
0.649705 0.979614 0.684386
0.835639 0.985710 0.740458
0.999945 0.992839 0.790431
0.000000 0.033726 0.790588
0.000000 0.006431 0.793098
0.212706 0.000000 0.802667
0.555608 0.001255 0.824314
0.832314 0.000000 0.835921
0.995318 0.193388 0.813396
0.001255 0.141333 0.784470
0.002730 0.131796 0.794039
0.175435 0.107074 0.803984
0.556737 0.032910 0.825443
0.838777 0.055686 0.838181
0.999984 0.305004 0.824853
0.000000 0.385255 0.778823
0.000000 0.360690 0.785663
0.020424 0.309239 0.799184
0.542682 0.325710 0.823216
0.848973 0.374870 0.836643
0.998119 0.498684 0.825688
0.004392 0.589020 0.775372
0.001255 0.584784 0.774180
0.001977 0.570761 0.777663
0.512220 0.561098 0.813114
0.850102 0.625632 0.838871
0.996329 0.702811 0.837114
0.001883 0.840000 0.814275
0.002039 0.835043 0.815592
0.246337 0.836487 0.819232
0.597239 0.836580 0.822965
0.854306 0.842949 0.837083
0.999062 0.865696 0.863509
0.332133 0.998408 0.812549
0.402008 0.997147 0.822709
0.540703 0.998667 0.825500
0.707299 0.993321 0.838657
0.841299 0.984948 0.844574
0.999922 0.992110 0.898777
0.000000 0.039177 0.999882
0.000000 0.014863 0.997592
0.003883 0.000000 0.996078
0.449459 0.003106 0.999223
0.758494 0.000000 0.997670
0.996040 0.124824 1.000000
0.000016 0.145867 0.995278
0.002330 0.140337 0.999961
0.003114 0.121948 0.997131
0.441352 0.082138 0.998113
0.761818 0.060733 0.998121
0.999938 0.253945 0.999969
0.000016 0.361608 0.999937
0.001887 0.338361 0.999457
0.006243 0.306050 0.998433
0.425837 0.323707 0.996737
0.765294 0.357906 0.998133
0.999984 0.462643 0.995263
0.003114 0.600785 0.999820
0.002193 0.591409 0.999393
0.003417 0.584825 0.997187
0.400129 0.544912 0.997488
0.773440 0.593724 0.999976
0.999946 0.672024 0.990650
0.001553 0.815663 0.998298
0.000009 0.815666 0.999838
0.002672 0.812962 0.999831
0.406458 0.802354 0.998135
0.775087 0.802515 0.995973
0.999937 0.863397 0.999890
0.000039 1.000000 0.999882
0.055782 0.996133 0.998298
0.405348 0.999223 0.999843
0.640061 1.000000 0.999874
0.847765 0.998369 0.998221
0.992310 0.999881 0.988505
