server/reference_tones/instax/instax.cube
TITLE "Generated by Resolve"
LUT_3D_SIZE 33
0.0491646 0.0357061 0.0377508
0.072755 0.0362707 0.038468
0.0946822 0.0377813 0.0400092
0.116365 0.0393683 0.0416114
0.137865 0.0409857 0.0432288
0.159335 0.0426184 0.0448615
0.181308 0.0443122 0.0465553
0.203387 0.0460212 0.0482643
0.225818 0.047776 0.0500038
0.248859 0.0495918 0.0518196
0.27216 0.0514382 0.0536507
0.295415 0.0532845 0.0554818
0.318639 0.0551308 0.0573129
0.341833 0.0569772 0.059144
0.365042 0.0588388 0.0609903
0.38822 0.0606851 0.0628367
0.411399 0.0625467 0.064683
0.434562 0.0644236 0.0665293
0.45771 0.0662852 0.0683757
0.480842 0.0681621 0.0702373
0.50396 0.0700389 0.0720989
0.527062 0.0719158 0.0739605
0.550149 0.0737926 0.0758221
0.57322 0.0756847 0.0776989
0.596292 0.0775769 0.0795758
0.619333 0.0794842 0.0814527
0.64239 0.0813764 0.0833295
0.665415 0.0832837 0.0852064
0.688457 0.0851911 0.0870985
0.711482 0.0870832 0.0889754
0.733959 0.0889906 0.0908675
0.757015 0.0908827 0.0927291
0.780072 0.0927596 0.0945907
0.0536507 0.0593881 0.0409705
0.0776379 0.0603494 0.0420996
0.10074 0.0614786 0.0441444
0.122866 0.0628977 0.0460822
0.14461 0.0644083 0.0478981
0.166247 0.0659953 0.0496681
0.188342 0.0676432 0.0514687
0.210513 0.069337 0.0532387
0.233036 0.0710613 0.0550546
0.256184 0.0728618 0.0569009
0.279515 0.0746929 0.0587778
0.3028 0.076524 0.0606546
0.326055 0.0783703 0.0625162
0.349294 0.0802014 0.0643778
0.372503 0.0820478 0.0662394
0.395727 0.0838941 0.068101
0.418921 0.0857557 0.0699779
0.4421 0.0876173 0.0718395
0.465263 0.0894789 0.0737163
0.488411 0.0913405 0.0755779
0.511543 0.0932326 0.0774548
0.534661 0.0951095 0.0793317
0.557763 0.0969863 0.0812085
0.58085 0.0988785 0.0831006
0.603922 0.100771 0.0849928
0.626978 0.102663 0.0868849
0.650034 0.10457 0.088777
0.673091 0.106462 0.0906691
0.696132 0.10837 0.0925612
0.718593 0.110292 0.0944839
0.741665 0.112184 0.0963455
0.764721 0.114061 0.0982223
0.787793 0.115953 0.100099
0.0603037 0.083238 0.0458381
0.0831159 0.0845502 0.0469062
0.106233 0.0857252 0.0485237
0.128847 0.0869917 0.0504616
0.150942 0.0884108 0.0524147
0.172808 0.0899062 0.0542916
0.195056 0.0915084 0.0561685
0.21735 0.0931716 0.0580301
0.239979 0.0948806 0.0599069
0.263249 0.0966659 0.0618296
0.286625 0.0984665 0.0637369
0.309941 0.100282 0.0656443
0.333242 0.102113 0.0675364
0.356512 0.103944 0.0694285
0.379767 0.105776 0.0713207
0.403006 0.107637 0.0732128
0.426215 0.109468 0.0750896
0.449424 0.11133 0.0769818
0.472602 0.113191 0.0788739
0.495766 0.115053 0.0807507
0.518914 0.11693 0.0826429
0.542046 0.118807 0.084535
0.565164 0.120699 0.0864271
0.588266 0.122591 0.0883345
0.611353 0.124483 0.0902419
0.634424 0.126375 0.092134
0.657481 0.128267 0.0940414
0.680552 0.130175 0.0959487
0.703593 0.132067 0.0978408
0.72607 0.134005 0.0997787
0.749157 0.135882 0.101656
0.772229 0.137774 0.103532
0.7953 0.139651 0.105425
0.0672007 0.107012 0.0509041
0.0895094 0.108446 0.0520485
0.112169 0.109773 0.0534524
0.134813 0.11107 0.0551766
0.157107 0.112428 0.0570535
0.179232 0.113878 0.0589761
0.201648 0.115419 0.0609293
0.224094 0.117037 0.0628367
0.246845 0.118715 0.0647593
0.270207 0.12047 0.0667277
0.29366 0.122255 0.0686809
0.317037 0.124071 0.0706188
0.340383 0.125887 0.0725567
0.363684 0.127687 0.0744793
0.386984 0.129534 0.0763867
0.410239 0.131365 0.0783093
0.433494 0.133211 0.0802167
0.456718 0.135058 0.0821241
0.479927 0.136919 0.0840314
0.503105 0.138781 0.0859236
0.526268 0.140658 0.0878309
0.549416 0.142535 0.0897383
0.572549 0.144411 0.0916457
0.595666 0.146304 0.0935683
0.618769 0.148196 0.0954757
0.641855 0.150088 0.0973983
0.664927 0.15198 0.0993057
0.687999 0.153887 0.101228
0.71107 0.155795 0.103136
0.733547 0.157717 0.105074
0.756649 0.159594 0.106966
0.779736 0.161486 0.108858
0.802808 0.163363 0.11075
0.0742351 0.130739 0.0560464
0.0962692 0.13225 0.0572671
0.118578 0.133669 0.0586252
0.141024 0.135042 0.0601816
0.163333 0.136416 0.0619516
0.18558 0.137835 0.0638132
0.208148 0.139345 0.0657511
0.230732 0.140917 0.067689
0.25362 0.142565 0.0696422
0.277104 0.144305 0.0716564
0.300633 0.14609 0.07364
0.324071 0.14786 0.0756085
0.347478 0.14966 0.0775769
0.370825 0.151476 0.07953
0.394156 0.153292 0.0814679
0.417456 0.155138 0.0834058
0.440726 0.15697 0.0853285
0.463981 0.158816 0.0872663
0.487221 0.160662 0.089189
0.51043 0.162524 0.0911116
0.533623 0.164385 0.0930343
0.556786 0.166262 0.0949569
0.579934 0.168154 0.0968795
0.603067 0.170031 0.0988022
0.626184 0.171923 0.10074
0.649271 0.173816 0.102663
0.672358 0.175708 0.104585
0.69546 0.177615 0.106508
0.718532 0.179522 0.108431
0.741024 0.181445 0.110384
0.764126 0.183322 0.112276
0.787228 0.185214 0.114183
0.810315 0.187091 0.116075
0.0813153 0.154437 0.0612497
0.103197 0.155993 0.0625315
0.125292 0.157473 0.0638895
0.147524 0.158923 0.0653697
0.169726 0.160327 0.0670176
0.192004 0.161761 0.0688029
0.214649 0.163272 0.0706798
0.237339 0.164828 0.0726177
0.260334 0.166445 0.0745861
0.283955 0.16817 0.0766003
0.307546 0.169924 0.0786145
0.33106 0.171695 0.0806287
0.354528 0.17348 0.0826123
0.37792 0.17528 0.0845808
0.401297 0.177081 0.0865492
0.424643 0.178912 0.0885023
0.447959 0.180743 0.0904555
0.471244 0.182589 0.0924086
0.494499 0.184436 0.0943465
0.517739 0.186282 0.0962844
0.540932 0.188144 0.0982223
0.564126 0.190021 0.10016
0.587289 0.191897 0.102098
0.610437 0.193774 0.104036
0.63357 0.195666 0.105974
0.656687 0.197559 0.107927
0.679789 0.199466 0.109865
0.702892 0.201358 0.111788
0.725978 0.203265 0.113725
0.748501 0.205173 0.115679
0.771603 0.207065 0.117586
0.794705 0.208942 0.119493
0.817823 0.210834 0.121401
0.088426 0.177996 0.066453
0.110201 0.179568 0.0677806
0.132097 0.181064 0.0691234
0.154162 0.182559 0.0705882
0.176242 0.184024 0.0721599
0.198489 0.185489 0.0738689
0.221134 0.186999 0.0756847
0.2439 0.188556 0.0775769
0.266987 0.190173 0.0795453
0.290684 0.191882 0.0815595
0.314366 0.193622 0.0835889
0.337942 0.195377 0.0856031
0.361471 0.197147 0.087602
0.384924 0.198947 0.089601
0.408347 0.200748 0.0915999
0.431724 0.202548 0.0935683
0.455085 0.204379 0.0955367
0.478401 0.206226 0.0975052
0.501686 0.208072 0.0994583
0.524956 0.209918 0.101427
0.54818 0.21178 0.10338
0.571389 0.213642 0.105318
0.594583 0.215518 0.107286
0.617746 0.217395 0.109224
0.640894 0.219303 0.111192
0.664027 0.221195 0.11313
0.687144 0.223087 0.115084
0.710246 0.224979 0.117021
0.733364 0.226886 0.118975
0.755886 0.228809 0.120928
0.779019 0.230686 0.12285
0.802136 0.232563 0.124773
0.825254 0.234455 0.126696
0.0957046 0.20209 0.0717937
0.117388 0.203677 0.073167
0.139193 0.205234 0.0745556
0.161135 0.206744 0.0760052
0.183062 0.20824 0.0775311
0.205264 0.20972 0.0791791
0.227878 0.211246 0.0809339
0.250645 0.212787 0.0827802
0.273808 0.214389 0.0847028
0.297581 0.216083 0.086717
0.321309 0.217807 0.0887312
0.344945 0.219532 0.0907454
0.368521 0.221286 0.0927596
0.39202 0.223056 0.0947585
0.415488 0.224842 0.0967575
0.438926 0.226642 0.0987564
0.462303 0.228458 0.10074
0.485649 0.230259 0.102708
0.508965 0.23209 0.104692
0.532265 0.233936 0.106661
0.55552 0.235798 0.108629
0.578759 0.237644 0.110597
0.601953 0.239521 0.112566
0.625132 0.241382 0.114519
0.648295 0.243259 0.116487
0.671443 0.245151 0.118441
0.694591 0.247044 0.120394
0.717708 0.248936 0.122362
0.740826 0.250828 0.1243
0.763363 0.252735 0.126268
0.786496 0.254597 0.128191
0.809628 0.256489 0.130129
0.832746 0.25835 0.132036
0.103075 0.226429 0.0772412
0.124697 0.228031 0.0786297
0.146426 0.229603 0.0800488
0.168261 0.231159 0.0815137
0.190082 0.23267 0.0830091
0.212222 0.234195 0.0846265
0.234791 0.235737 0.0863355
0.257557 0.237293 0.0881361
0.280751 0.238911 0.0900282
0.304555 0.240589 0.0919966
0.328328 0.242298 0.0940108
0.35201 0.244022 0.0960098
0.375631 0.245777 0.098024
0.399191 0.247532 0.100038
0.422705 0.249302 0.102037
0.446174 0.251102 0.104051
0.469596 0.252903 0.10605
0.492988 0.254719 0.108034
0.516335 0.256535 0.110018
0.539651 0.258381 0.112001
0.562921 0.260212 0.113985
0.586191 0.262074 0.115953
0.609415 0.26392 0.117937
0.632609 0.265797 0.119905
0.655787 0.267659 0.121874
0.67895 0.269551 0.123842
0.702098 0.271427 0.125811
0.725231 0.27332 0.127764
0.748363 0.275196 0.129732
0.770916 0.277104 0.131701
0.794064 0.278981 0.133639
0.817197 0.280842 0.135561
0.84033 0.282734 0.137499
0.110521 0.25098 0.0827497
0.132097 0.252613 0.0841688
0.153765 0.2542 0.0856031
0.175509 0.255772 0.087068
0.197253 0.257313 0.0885786
0.219348 0.258854 0.0901656
0.241856 0.26041 0.0918441
0.264591 0.261997 0.0935988
0.287785 0.263615 0.0954604
0.311635 0.265309 0.0973983
0.335409 0.267002 0.099382
0.359136 0.268727 0.101381
0.382788 0.270466 0.10338
0.406394 0.272206 0.105394
0.429938 0.273976 0.107393
0.453437 0.275746 0.109407
0.476905 0.277546 0.111406
0.500328 0.279347 0.113405
0.523705 0.281163 0.115404
0.547051 0.282994 0.117388
0.570352 0.28481 0.119371
0.593622 0.286671 0.12137
0.616876 0.288518 0.123354
0.640085 0.290379 0.125322
0.663294 0.292241 0.127306
0.686473 0.294118 0.12929
0.709636 0.295995 0.131258
0.732784 0.297871 0.133227
0.755917 0.299748 0.135195
0.7785 0.301656 0.137179
0.801648 0.303517 0.139101
0.824811 0.305394 0.141039
0.847944 0.307256 0.142977
0.118105 0.276005 0.0883955
0.139635 0.277623 0.0898299
0.161257 0.27924 0.0912795
0.18294 0.280827 0.0927596
0.204593 0.282383 0.0942702
0.226673 0.28394 0.0958419
0.249119 0.285527 0.0974899
0.271824 0.287114 0.0992294
0.295018 0.288746 0.101045
0.318868 0.29044 0.102968
0.342657 0.292134 0.104921
0.366384 0.293843 0.106889
0.390066 0.295567 0.108873
0.413687 0.297307 0.110872
0.437278 0.299062 0.112886
0.460807 0.300816 0.114885
0.484306 0.302602 0.116884
0.507744 0.304387 0.118883
0.531151 0.306188 0.120882
0.554528 0.308003 0.122881
0.577859 0.309834 0.12488
0.601144 0.311666 0.126864
0.624414 0.313497 0.128862
0.647654 0.315358 0.130846
0.670863 0.317205 0.13283
0.694057 0.319066 0.134813
0.717235 0.320943 0.136797
0.740398 0.322805 0.138766
0.763561 0.324681 0.140734
0.786145 0.326574 0.142718
0.809323 0.328435 0.144671
0.832471 0.330297 0.146593
0.855619 0.332158 0.148531
0.125887 0.301747 0.0942397
0.147387 0.30338 0.0956893
0.168963 0.304982 0.0971542
0.190585 0.306584 0.0986343
0.212177 0.308141 0.100145
0.234226 0.309728 0.101717
0.256626 0.311315 0.103365
0.279301 0.312932 0.105058
0.302495 0.314565 0.106859
0.326329 0.316243 0.108751
0.350103 0.317952 0.110674
0.373846 0.319646 0.112612
0.397528 0.32137 0.11458
0.42118 0.323095 0.116579
0.444785 0.324834 0.118563
0.46833 0.326574 0.120546
0.491859 0.328344 0.12256
0.515328 0.330114 0.124544
0.538766 0.331899 0.126558
0.562158 0.3337 0.128557
0.585489 0.3355 0.130541
0.60882 0.337316 0.13254
0.632105 0.339147 0.134539
0.65536 0.340993 0.136522
0.678584 0.342824 0.138521
0.701793 0.344686 0.140505
0.724987 0.346532 0.142489
0.748165 0.348394 0.144457
0.771328 0.350256 0.146426
0.793927 0.352148 0.148425
0.817105 0.353994 0.150362
0.840284 0.35584 0.152316
0.863432 0.357687 0.154253
0.133715 0.327596 0.100114
0.155184 0.329229 0.101579
0.17673 0.330861 0.103059
0.198306 0.332479 0.10457
0.219837 0.334035 0.106065
0.241886 0.335653 0.107637
0.26424 0.33727 0.10927
0.286885 0.338888 0.110964
0.310063 0.340551 0.112749
0.333898 0.34226 0.114611
0.357641 0.343969 0.116503
0.381369 0.345678 0.118425
0.405081 0.347402 0.120378
0.428733 0.349126 0.122347
0.452354 0.350866 0.124331
0.475929 0.352605 0.126314
0.499458 0.35436 0.128313
0.522957 0.35613 0.130297
0.54641 0.357916 0.132296
0.569833 0.359716 0.134295
0.59321 0.361517 0.136309
0.616541 0.363333 0.138293
0.639841 0.365148 0.140291
0.663111 0.366979 0.14229
0.686366 0.368811 0.144274
0.70959 0.370672 0.146273
0.732799 0.372519 0.148257
0.755978 0.374365 0.15024
0.779156 0.376226 0.152224
0.801785 0.378103 0.154208
0.824979 0.37995 0.156161
0.848157 0.381796 0.158114
0.871336 0.383642 0.160067
0.141527 0.353399 0.105974
0.162982 0.355062 0.107469
0.184497 0.356695 0.108965
0.206058 0.358328 0.110491
0.227558 0.35993 0.112001
0.249577 0.361547 0.113573
0.271901 0.36318 0.115206
0.29453 0.364813 0.116884
0.317708 0.366506 0.118654
0.341512 0.368231 0.1205
0.365255 0.36994 0.122377
0.388968 0.371664 0.124285
0.41265 0.373388 0.126207
0.436316 0.375113 0.128161
0.459937 0.376852 0.130129
0.483528 0.378592 0.132097
0.507088 0.380346 0.134081
0.530602 0.382116 0.13608
0.55407 0.383902 0.138064
0.577493 0.385687 0.140063
0.600885 0.387472 0.142061
0.624247 0.389288 0.14406
0.647562 0.391104 0.146044
0.670863 0.392935 0.148058
0.694133 0.394766 0.150042
0.717372 0.396597 0.152041
0.740597 0.398459 0.15404
0.76379 0.40029 0.156024
0.786999 0.402152 0.158007
0.809628 0.404028 0.160006
0.832837 0.405875 0.161959
0.856031 0.407706 0.163912
0.87921 0.409552 0.165866
0.149401 0.379248 0.111894
0.170825 0.380896 0.11339
0.192309 0.382544 0.1149
0.21384 0.384176 0.116426
0.235294 0.385794 0.117952
0.257328 0.387442 0.119539
0.279606 0.38909 0.121157
0.302235 0.390738 0.122835
0.325429 0.392447 0.12459
0.349187 0.394186 0.126421
0.3729 0.395911 0.128283
0.396597 0.397635 0.130159
0.420264 0.399359 0.132067
0.443931 0.401099 0.134005
0.467552 0.402838 0.135958
0.491157 0.404578 0.137911
0.514717 0.406332 0.139879
0.538231 0.408103 0.141863
0.56173 0.409873 0.143847
0.585168 0.411643 0.145846
0.608591 0.413443 0.147845
0.631968 0.415244 0.149844
0.655299 0.41706 0.151827
0.678599 0.418875 0.153826
0.701885 0.420706 0.155825
0.725139 0.422553 0.157824
0.748379 0.424384 0.159808
0.771588 0.42623 0.161807
0.794797 0.428077 0.16379
0.817456 0.429953 0.165789
0.840681 0.431785 0.167758
0.86389 0.433616 0.169711
0.887068 0.435462 0.171664
0.157259 0.405051 0.1178
0.178668 0.406729 0.11931
0.200137 0.408392 0.120836
0.221637 0.41004 0.122362
0.243076 0.411658 0.123888
0.265095 0.413306 0.12549
0.287358 0.414969 0.127108
0.309957 0.416632 0.128786
0.333165 0.418357 0.130541
0.356893 0.420096 0.132357
0.380575 0.421836 0.134188
0.404257 0.423575 0.136065
0.427924 0.425315 0.137957
0.45156 0.427054 0.139864
0.475196 0.428794 0.141802
0.498787 0.430533 0.14374
0.522347 0.432288 0.145708
0.545876 0.434058 0.147677
0.56939 0.435828 0.14966
0.592844 0.437598 0.151644
0.616266 0.439384 0.153628
0.639658 0.441199 0.155627
0.66302 0.443 0.157626
0.686336 0.444816 0.159625
0.709636 0.446647 0.161624
0.732906 0.448478 0.163622
0.756161 0.450309 0.165606
0.7794 0.452155 0.167605
0.802136 0.454017 0.169604
0.825299 0.455879 0.171603
0.848508 0.457694 0.173556
0.871733 0.459525 0.175525
0.894942 0.461372 0.177478
0.165148 0.4309 0.12372
0.186542 0.432578 0.125261
0.20798 0.434226 0.126787
0.229465 0.435889 0.128328
0.250874 0.437522 0.129854
0.272908 0.439185 0.131441
0.295155 0.440864 0.133074
0.317739 0.442542 0.134752
0.340963 0.444266 0.136492
0.36466 0.446036 0.138308
0.388312 0.447776 0.140139
0.411963 0.449516 0.141985
0.435599 0.451255 0.143862
0.459236 0.45301 0.145754
0.482841 0.454749 0.147677
0.506447 0.456504 0.149599
0.530022 0.458259 0.151553
0.553552 0.460014 0.153506
0.57705 0.461784 0.155474
0.600534 0.463569 0.157458
0.623972 0.465354 0.159442
0.647379 0.467155 0.16144
0.670741 0.468956 0.163424
0.694072 0.470771 0.165423
0.717388 0.472587 0.167422
0.740673 0.474418 0.169421
0.763943 0.476249 0.17142
0.787198 0.478096 0.173419
0.809857 0.479973 0.175433
0.833112 0.481788 0.177401
0.856352 0.483619 0.17937
0.879576 0.485451 0.181338
0.9028 0.487282 0.183291
0.173037 0.456733 0.129656
0.19443 0.458412 0.131197
0.215854 0.460075 0.132738
0.237293 0.461738 0.134279
0.258701 0.463371 0.135821
0.280735 0.465049 0.137423
0.302953 0.466728 0.13904
0.325551 0.468421 0.140719
0.348791 0.470176 0.142458
0.372457 0.471931 0.144259
0.396078 0.473686 0.146075
0.419699 0.475441 0.147921
0.44332 0.477195 0.149783
0.466941 0.47895 0.151675
0.490547 0.480705 0.153567
0.514138 0.48246 0.155489
0.537697 0.484215 0.157427
0.561242 0.485969 0.159365
0.584756 0.487739 0.161334
0.608225 0.489525 0.163302
0.631662 0.49131 0.16527
0.655085 0.493111 0.167254
0.678462 0.494911 0.169253
0.701823 0.496727 0.171252
0.725139 0.498543 0.173236
0.74844 0.500359 0.175235
0.771725 0.50219 0.177234
0.794965 0.504021 0.179217
0.817655 0.505898 0.181247
0.840925 0.507713 0.183215
0.864179 0.509529 0.185183
0.887419 0.51136 0.187152
0.910643 0.513191 0.189105
0.180957 0.482567 0.135607
0.202319 0.484245 0.137148
0.223728 0.485924 0.138689
0.245136 0.487572 0.14023
0.266545 0.489219 0.141787
0.288579 0.490913 0.143389
0.310811 0.492607 0.145022
0.333394 0.494301 0.1467
0.356664 0.496071 0.14844
0.380285 0.497841 0.15024
0.403876 0.499611 0.152041
0.427482 0.501366 0.153872
0.451072 0.50312 0.155718
0.474678 0.504891 0.157595
0.498268 0.506645 0.159487
0.521843 0.5084 0.161395
0.545419 0.51017 0.163317
0.568948 0.511925 0.165255
0.592462 0.513695 0.167193
0.615946 0.51548 0.169162
0.639399 0.517266 0.17113
0.662806 0.519051 0.173114
0.686198 0.520867 0.175097
0.70956 0.522667 0.177081
0.732891 0.524483 0.179065
0.756207 0.526299 0.181064
0.779492 0.52813 0.183062
0.802762 0.529961 0.185046
0.825452 0.531823 0.187076
0.848722 0.533639 0.189029
0.871992 0.535454 0.190997
0.895247 0.53727 0.192966
0.918471 0.539101 0.194934
0.188846 0.508385 0.141543
0.210208 0.510063 0.143099
0.231601 0.511742 0.14464
0.252995 0.513405 0.146197
0.274418 0.515068 0.147753
0.296452 0.516762 0.149355
0.318654 0.518456 0.151003
0.341268 0.52018 0.152682
0.364553 0.52195 0.154421
0.388144 0.523735 0.156207
0.411704 0.525505 0.158007
0.435279 0.527276 0.159838
0.458869 0.529046 0.161685
0.482444 0.530816 0.163546
0.506035 0.53257 0.165423
0.529595 0.534325 0.167315
0.55314 0.536095 0.169223
0.576684 0.537865 0.171145
0.600183 0.539635 0.173083
0.623667 0.541421 0.175036
0.64712 0.543206 0.177005
0.670542 0.544991 0.178958
0.693935 0.546792 0.180941
0.717311 0.548608 0.182925
0.740642 0.550408 0.184909
0.763958 0.552239 0.186908
0.787259 0.554055 0.188891
0.810544 0.555886 0.190875
0.833234 0.557733 0.192889
0.856535 0.559548 0.194858
0.879805 0.561364 0.196826
0.903059 0.56318 0.198795
0.926299 0.564996 0.200748
0.19678 0.534203 0.147494
0.218112 0.535897 0.14905
0.23949 0.537575 0.150607
0.260853 0.539239 0.152163
0.282307 0.540902 0.153735
0.304326 0.542611 0.155352
0.326543 0.54432 0.156985
0.349157 0.546044 0.158663
0.372473 0.547829 0.160418
0.396033 0.549615 0.162203
0.419577 0.5514 0.164004
0.443137 0.553185 0.16582
0.466682 0.554955 0.167651
0.490242 0.556725 0.169497
0.513802 0.55848 0.171359
0.537362 0.56025 0.173251
0.560906 0.56202 0.175143
0.584436 0.56379 0.177066
0.607935 0.565576 0.178988
0.631403 0.567346 0.180926
0.654856 0.569131 0.182879
0.678294 0.570932 0.184848
0.701686 0.572732 0.186816
0.725048 0.574533 0.188785
0.748394 0.576333 0.190768
0.771725 0.578149 0.192752
0.795026 0.579965 0.19472
0.818326 0.581796 0.196719
0.841031 0.583642 0.198718
0.864317 0.585443 0.200687
0.887602 0.587259 0.20264
0.910857 0.589059 0.204608
0.934112 0.59089 0.206561
0.2047 0.560006 0.153445
0.226017 0.5617 0.155001
0.247395 0.563378 0.156573
0.268727 0.565057 0.158129
0.290196 0.56672 0.159701
0.312215 0.568429 0.161318
0.334432 0.570153 0.162966
0.357061 0.571893 0.16466
0.380392 0.573678 0.1664
0.403922 0.575479 0.168185
0.427451 0.577264 0.169986
0.45098 0.579049 0.171786
0.47451 0.580835 0.173617
0.498054 0.582605 0.175463
0.521599 0.584375 0.177325
0.545144 0.58616 0.179187
0.568673 0.587915 0.181079
0.592187 0.5897 0.182986
0.615686 0.59147 0.184894
0.639155 0.593256 0.186831
0.662608 0.595041 0.188769
0.68603 0.596841 0.190723
0.709422 0.598627 0.192676
0.732784 0.600427 0.194644
0.756146 0.602243 0.196612
0.779477 0.604044 0.198596
0.802792 0.605859 0.20058
0.826078 0.607675 0.202548
0.848798 0.609537 0.204547
0.872099 0.611337 0.206516
0.895399 0.613138 0.208469
0.918669 0.614954 0.210437
0.941924 0.616754 0.21239
0.212634 0.585809 0.159411
0.233951 0.587503 0.160983
0.255299 0.589197 0.162554
0.276631 0.590875 0.164111
0.298146 0.592569 0.165698
0.32015 0.594278 0.16733
0.342351 0.595987 0.168963
0.365011 0.597742 0.170657
0.388373 0.599542 0.172412
0.411872 0.601343 0.174197
0.43537 0.603143 0.175982
0.458869 0.604929 0.177798
0.482399 0.606714 0.179614
0.505913 0.608499 0.181445
0.529442 0.610269 0.183291
0.552956 0.612039 0.185153
0.576471 0.613825 0.18703
0.599985 0.615595 0.188922
0.623468 0.61738 0.190829
0.646922 0.619165 0.192752
0.670375 0.620951 0.194675
0.693797 0.622751 0.196628
0.717189 0.624537 0.198566
0.740566 0.626337 0.200534
0.763912 0.628138 0.202487
0.787243 0.629953 0.204456
0.810559 0.631754 0.206424
0.83386 0.63357 0.208408
0.856596 0.635416 0.210407
0.879896 0.637217 0.21236
0.903197 0.639017 0.214313
0.926467 0.640818 0.216266
0.949737 0.642634 0.218219
0.2206 0.611627 0.165408
0.241901 0.613321 0.166979
0.263249 0.615015 0.168551
0.284535 0.616693 0.170108
0.306096 0.618387 0.171695
0.328084 0.620096 0.173327
0.350301 0.621836 0.17499
0.372976 0.62359 0.176684
0.396368 0.625391 0.178439
0.419837 0.627192 0.180209
0.44332 0.629007 0.18201
0.466789 0.630793 0.183795
0.490288 0.632578 0.185611
0.513802 0.634363 0.187442
0.537301 0.636149 0.189288
0.560815 0.637934 0.191135
0.584298 0.639704 0.192996
0.607797 0.641489 0.194873
0.631266 0.643275 0.19678
0.654719 0.645045 0.198688
0.678157 0.646845 0.20061
0.701579 0.64863 0.202533
0.724971 0.650431 0.204471
0.748333 0.652216 0.206424
0.771695 0.654032 0.208377
0.795026 0.655833 0.210346
0.818341 0.657649 0.212299
0.841642 0.659449 0.214267
0.864378 0.661295 0.216266
0.887694 0.663081 0.218204
0.910994 0.664881 0.220157
0.934279 0.666682 0.22211
0.957534 0.668482 0.224063
0.22855 0.63743 0.171389
0.249851 0.639124 0.172961
0.271183 0.640818 0.174548
0.292454 0.642512 0.17612
0.314061 0.644205 0.177707
0.336049 0.645914 0.179339
0.358267 0.647654 0.181003
0.380957 0.649409 0.182696
0.404379 0.65124 0.184466
0.427817 0.65304 0.186236
0.45127 0.654841 0.188022
0.474739 0.656641 0.189822
0.498222 0.658442 0.191623
0.521706 0.660227 0.193439
0.54519 0.662013 0.19527
0.568689 0.663798 0.197131
0.592157 0.665568 0.198978
0.615641 0.667353 0.200855
0.639094 0.669139 0.202731
0.662547 0.670924 0.204639
0.685969 0.672724 0.206546
0.709377 0.67451 0.208469
0.732769 0.67631 0.210391
0.75613 0.678096 0.212329
0.779477 0.679896 0.214282
0.802808 0.681697 0.216236
0.826123 0.683513 0.218189
0.849424 0.685313 0.220142
0.872175 0.68716 0.222126
0.895491 0.688945 0.224079
0.918791 0.69073 0.226017
0.942077 0.692531 0.227955
0.965347 0.694331 0.229908
0.23653 0.663233 0.177386
0.257816 0.664927 0.178973
0.279149 0.666621 0.180545
0.300389 0.668315 0.182132
0.322042 0.670008 0.183734
0.344015 0.671733 0.185367
0.366247 0.673472 0.187015
0.388968 0.675227 0.188724
0.41239 0.677058 0.190478
0.435813 0.678874 0.192264
0.459251 0.68069 0.194049
0.482704 0.68249 0.195834
0.506157 0.684276 0.19765
0.529625 0.686076 0.199451
0.553094 0.687861 0.201282
0.576562 0.689647 0.203113
0.600031 0.691432 0.204959
0.623499 0.693217 0.206821
0.646952 0.695003 0.208713
0.670375 0.696788 0.21059
0.693782 0.698573 0.212482
0.717189 0.700359 0.214405
0.740566 0.702159 0.216327
0.763928 0.70396 0.21825
0.787274 0.70576 0.220188
0.810605 0.707561 0.222126
0.833921 0.709361 0.224079
0.857237 0.711162 0.226032
0.879973 0.712993 0.228
0.903288 0.714794 0.229953
0.926604 0.716579 0.231891
0.949889 0.718364 0.233829
0.973159 0.720165 0.235767
0.244511 0.689021 0.183398
0.265797 0.69073 0.184985
0.287114 0.692424 0.186572
0.308339 0.694102 0.188144
0.330022 0.695811 0.189746
0.351995 0.697536 0.191394
0.374243 0.699275 0.193057
0.396994 0.701045 0.194751
0.420417 0.702876 0.196521
0.443824 0.704692 0.198291
0.467247 0.706508 0.200076
0.490669 0.708309 0.201862
0.514107 0.710109 0.203662
0.53756 0.71191 0.205463
0.561013 0.713695 0.207294
0.584466 0.71548 0.20911
0.607919 0.717266 0.210956
0.631357 0.719051 0.212802
0.654795 0.720836 0.214679
0.678218 0.722637 0.216556
0.701625 0.724422 0.218448
0.725017 0.726207 0.220356
0.748379 0.728008 0.222263
0.77174 0.729793 0.224186
0.795087 0.731594 0.226108
0.818418 0.733394 0.228046
0.841733 0.735195 0.229984
0.865034 0.737011 0.231937
