server/reference_tones/instax/instax.cube
TITLE "Generated by Resolve"
LUT_3D_SIZE 5
0.0491646 0.0357061 0.0377508
0.225818 0.047776 0.0500038
0.411399 0.0625467 0.064683
0.596292 0.0775769 0.0795758
0.780072 0.0927596 0.0945907
0.103075 0.226429 0.0772412
0.280751 0.238911 0.0900282
0.469596 0.252903 0.10605
0.655787 0.267659 0.121874
0.84033 0.282734 0.137499
0.165148 0.4309 0.12372
0.340963 0.444266 0.136492
0.530022 0.458259 0.151553
0.717388 0.472587 0.167422
0.9028 0.487282 0.183291
0.22855 0.63743 0.171389
0.404379 0.65124 0.184466
0.592157 0.665568 0.198978
0.779477 0.679896 0.214282
0.965347 0.694331 0.229908
0.292424 0.84358 0.21944
0.468711 0.857496 0.232654
0.655467 0.871962 0.246921
0.842115 0.886351 0.261738
1 0.90071 0.276951
0.0551766 0.0404212 0.158541
0.232349 0.0529335 0.17113
0.419089 0.0676585 0.183841
0.604105 0.0827955 0.197711
0.787915 0.0980697 0.212161
0.109529 0.231586 0.19823
0.287343 0.244114 0.211002
0.478614 0.257771 0.224933
0.664302 0.272786 0.239872
0.848615 0.287984 0.254963
0.171054 0.436622 0.242405
0.34583 0.450416 0.254398
0.537133 0.463935 0.26833
0.725704 0.477913 0.284459
0.911162 0.492592 0.300282
0.234546 0.643259 0.289036
0.409873 0.657267 0.301701
0.598062 0.671595 0.315419
0.786603 0.685588 0.330465
0.973175 0.699794 0.346197
0.298512 0.849409 0.336507
0.474525 0.863447 0.349462
0.661295 0.877958 0.363241
0.848508 0.892226 0.377661
1 0.906401 0.392798
0.0622721 0.0462043 0.283696
0.237369 0.0591287 0.297368
0.425254 0.0734874 0.310674
0.611231 0.0884413 0.323888
0.795453 0.103685 0.337667
0.118364 0.236622 0.325093
0.294179 0.249546 0.340032
0.485466 0.263218 0.35375
0.672251 0.278172 0.366506
0.856687 0.293446 0.380392
0.178775 0.441978 0.368902
0.352667 0.455848 0.382666
0.543969 0.469352 0.396368
0.734874 0.482948 0.410178
0.919844 0.497871 0.424979
0.241505 0.648936 0.414099
0.416037 0.663157 0.426978
0.603052 0.677882 0.439567
0.79382 0.691371 0.453269
0.981582 0.705196 0.46923
0.30518 0.855192 0.460395
0.48072 0.869383 0.473182
0.666896 0.884092 0.48629
0.85449 0.898344 0.499657
1 0.912184 0.514458
0.0695506 0.0521553 0.411643
0.243549 0.0653697 0.425574
0.431052 0.0797589 0.439765
0.617624 0.0945296 0.453437
0.802457 0.109667 0.46714
0.126696 0.242222 0.453925
0.30161 0.255528 0.468635
0.490669 0.269642 0.483574
0.678614 0.284215 0.497185
0.863996 0.299306 0.510613
0.18735 0.447425 0.498802
0.362066 0.461082 0.513558
0.550988 0.474968 0.529595
0.741894 0.488563 0.543389
0.927962 0.50341 0.556115
0.2495 0.654551 0.544137
0.424155 0.668696 0.558114
0.610056 0.683467 0.572778
0.800809 0.696956 0.58645
0.990906 0.710384 0.600076
0.312642 0.860975 0.590005
0.487984 0.875212 0.603372
0.673198 0.89012 0.616922
0.859663 0.904784 0.62945
1 0.918151 0.643015
0.0768444 0.0581216 0.539101
0.250294 0.0715496 0.553124
0.437247 0.0860304 0.567742
0.623819 0.100786 0.581949
0.809033 0.115801 0.595941
0.134661 0.248035 0.581872
0.309117 0.26157 0.59646
0.496941 0.27599 0.611688
0.684474 0.290578 0.626169
0.870436 0.305455 0.640024
0.195773 0.453071 0.627466
0.370764 0.466758 0.642298
0.558465 0.48101 0.658045
0.747143 0.495094 0.673091
0.93434 0.509514 0.686656
0.257877 0.660197 0.673335
0.433066 0.674189 0.687892
0.61944 0.688701 0.703517
0.807828 0.702556 0.719509
0.997879 0.715953 0.733104
0.320623 0.866667 0.719265
0.496208 0.880827 0.733242
0.681285 0.895644 0.74789
0.866636 0.910353 0.762493
1 0.923445 0.775784
