server/reference_tones/instax/instax.cube
TITLE "Generated by Resolve"
LUT_3D_SIZE 9
0.0491646 0.0357061 0.0377508
0.137865 0.0409857 0.0432288
0.225818 0.047776 0.0500038
0.318639 0.0551308 0.0573129
0.411399 0.0625467 0.064683
0.50396 0.0700389 0.0720989
0.596292 0.0775769 0.0795758
0.688457 0.0851911 0.0870985
0.780072 0.0927596 0.0945907
0.0742351 0.130739 0.0560464
0.163333 0.136416 0.0619516
0.25362 0.142565 0.0696422
0.347478 0.14966 0.0775769
0.440726 0.15697 0.0853285
0.533623 0.164385 0.0930343
0.626184 0.171923 0.10074
0.718532 0.179522 0.108431
0.810315 0.187091 0.116075
0.103075 0.226429 0.0772412
0.190082 0.23267 0.0830091
0.280751 0.238911 0.0900282
0.375631 0.245777 0.098024
0.469596 0.252903 0.10605
0.562921 0.260212 0.113985
0.655787 0.267659 0.121874
0.748363 0.275196 0.129732
0.84033 0.282734 0.137499
0.133715 0.327596 0.100114
0.219837 0.334035 0.106065
0.310063 0.340551 0.112749
0.405081 0.347402 0.120378
0.499458 0.35436 0.128313
0.59321 0.361517 0.136309
0.686366 0.368811 0.144274
0.779156 0.376226 0.152224
0.871336 0.383642 0.160067
0.165148 0.4309 0.12372
0.250874 0.437522 0.129854
0.340963 0.444266 0.136492
0.435599 0.451255 0.143862
0.530022 0.458259 0.151553
0.623972 0.465354 0.159442
0.717388 0.472587 0.167422
0.809857 0.479973 0.175433
0.9028 0.487282 0.183291
0.19678 0.534203 0.147494
0.282307 0.540902 0.153735
0.372473 0.547829 0.160418
0.466682 0.554955 0.167651
0.560906 0.56202 0.175143
0.654856 0.569131 0.182879
0.748394 0.576333 0.190768
0.841031 0.583642 0.198718
0.934112 0.59089 0.206561
0.22855 0.63743 0.171389
0.314061 0.644205 0.177707
0.404379 0.65124 0.184466
0.498222 0.658442 0.191623
0.592157 0.665568 0.198978
0.685969 0.672724 0.206546
0.779477 0.679896 0.214282
0.872175 0.68716 0.222126
0.965347 0.694331 0.229908
0.260471 0.740566 0.195407
0.345983 0.747356 0.201785
0.436484 0.754452 0.208576
0.530053 0.7617 0.215686
0.623713 0.768872 0.222934
0.717327 0.776043 0.230365
0.810712 0.783215 0.237949
0.903395 0.790433 0.24567
0.996597 0.797574 0.253361
0.292424 0.84358 0.21944
0.377981 0.85037 0.225834
0.468711 0.857496 0.232654
0.562036 0.864759 0.239734
0.655467 0.871962 0.246921
0.748852 0.879149 0.254246
0.842115 0.886351 0.261738
0.934737 0.893568 0.269352
1 0.90071 0.276951
0.0518196 0.0377203 0.0991989
0.140932 0.0434119 0.105074
0.22974 0.0501717 0.110414
0.322698 0.0576028 0.11696
0.415473 0.0650797 0.123888
0.508003 0.0726024 0.131014
0.60029 0.0801862 0.138293
0.692439 0.0878157 0.145663
0.78407 0.0954299 0.153063
0.0772869 0.133165 0.117845
0.166415 0.138857 0.123735
0.258503 0.144762 0.129854
0.352041 0.152041 0.137102
0.445106 0.159442 0.144457
0.537881 0.166934 0.151904
0.63035 0.174502 0.159396
0.722652 0.182132 0.166964
0.81442 0.189746 0.174502
0.105699 0.229221 0.13727
0.191959 0.235782 0.142458
0.28423 0.241688 0.148623
0.380056 0.248295 0.156832
0.474052 0.255421 0.164813
0.5673 0.262776 0.172641
0.660075 0.270268 0.180407
0.752575 0.277836 0.188159
0.844526 0.285389 0.195834
0.136416 0.330495 0.159365
0.222171 0.337133 0.165026
0.312688 0.343633 0.171099
0.408652 0.350256 0.178561
0.503578 0.357061 0.186572
0.597452 0.364157 0.194614
0.690623 0.371466 0.202579
0.783398 0.378882 0.210483
0.875532 0.386328 0.21828
0.167971 0.433845 0.182574
0.253468 0.440574 0.18851
0.343557 0.447364 0.194781
0.438651 0.454276 0.201846
0.533608 0.461128 0.209491
0.627909 0.468116 0.217426
0.721492 0.475319 0.225467
0.814008 0.482673 0.233478
0.906966 0.489982 0.241337
0.199664 0.537163 0.206058
0.285039 0.543938 0.212161
0.375174 0.550896 0.218616
0.469566 0.558007 0.225589
0.564141 0.564996 0.232944
0.658457 0.572015 0.24065
0.752239 0.579141 0.248554
0.844999 0.586389 0.25655
0.938155 0.593606 0.264408
0.231495 0.640391 0.22974
0.316899 0.647211 0.235966
0.407172 0.654276 0.242557
0.501076 0.661479 0.249516
0.595224 0.668589 0.256703
0.689296 0.675654 0.264195
0.783062 0.682765 0.271916
0.875944 0.689967 0.279789
0.969238 0.697093 0.287587
0.263462 0.743526 0.253605
0.348898 0.750347 0.259892
0.439353 0.757473 0.26656
0.532937 0.764736 0.273518
0.626719 0.771893 0.280629
0.7205 0.779004 0.287953
0.814099 0.78613 0.295491
0.906966 0.793286 0.303197
1 0.800397 0.310903
0.295445 0.846525 0.277501
0.380941 0.853346 0.283833
0.471641 0.860502 0.290547
0.564965 0.867781 0.29752
0.658457 0.874968 0.30457
0.751949 0.882139 0.311803
0.845365 0.889296 0.319203
0.938155 0.896468 0.326787
1 0.903578 0.334401
0.0551766 0.0404212 0.158541
0.142748 0.0464637 0.165255
0.232349 0.0529335 0.17113
0.326024 0.0601968 0.17731
0.419089 0.0676585 0.183841
0.511757 0.0751812 0.190661
0.604105 0.0827955 0.197711
0.696284 0.0904402 0.204898
0.787915 0.0980697 0.212161
0.0819715 0.135317 0.178668
0.169451 0.141268 0.186175
0.261601 0.147189 0.192279
0.355993 0.154421 0.198062
0.449165 0.161898 0.204654
0.541924 0.169451 0.211658
0.634363 0.177066 0.218891
0.72665 0.184726 0.226246
0.818402 0.19237 0.233646
0.109529 0.231586 0.19823
0.19501 0.238209 0.204852
0.287343 0.244114 0.211002
0.384985 0.250462 0.217609
0.478614 0.257771 0.224933
0.571649 0.265232 0.232364
0.664302 0.272786 0.239872
0.756725 0.280385 0.247425
0.848615 0.287984 0.254963
0.139696 0.333135 0.219684
0.224796 0.33994 0.225681
0.314473 0.346761 0.231159
0.412131 0.353017 0.237781
0.507958 0.359548 0.245991
0.601877 0.366629 0.254002
0.694957 0.373983 0.26186
0.78764 0.38143 0.269642
0.879728 0.388922 0.277348
0.171054 0.436622 0.242405
0.256153 0.443458 0.248402
0.34583 0.450416 0.254398
0.44123 0.457328 0.260884
0.537133 0.463935 0.26833
0.631968 0.470756 0.276371
0.725704 0.477913 0.284459
0.818235 0.485252 0.29247
0.911162 0.492592 0.300282
0.202701 0.539986 0.265553
0.287831 0.546853 0.271656
0.377707 0.553918 0.277943
0.472114 0.561059 0.284581
0.567132 0.567971 0.291661
0.661997 0.574838 0.299321
0.75613 0.581857 0.307286
0.849058 0.589059 0.315312
0.94226 0.596246 0.323201
0.234546 0.643259 0.289036
0.319768 0.650141 0.295247
0.409873 0.657267 0.301701
0.503731 0.66453 0.308461
0.598062 0.671595 0.315419
0.692485 0.678584 0.322759
0.786603 0.685588 0.330465
0.879744 0.692714 0.338369
0.973175 0.699794 0.346197
0.266514 0.746395 0.312734
0.351827 0.753277 0.31899
0.442176 0.760449 0.325582
0.535683 0.767727 0.332387
0.629526 0.774899 0.339315
0.723522 0.781964 0.346487
0.817395 0.789029 0.353964
0.910506 0.796109 0.361654
1 0.803159 0.36939
0.298512 0.849409 0.336507
0.383902 0.85626 0.342809
0.474525 0.863447 0.349462
0.567788 0.870756 0.356313
0.661295 0.877958 0.363241
0.75491 0.8851 0.370336
0.848508 0.892226 0.377661
0.941527 0.899351 0.385199
1 0.906401 0.392798
0.0586557 0.0432441 0.219699
0.145373 0.0495003 0.226581
0.234653 0.0559701 0.233036
0.328771 0.0631113 0.23946
0.422293 0.0704509 0.245853
0.515236 0.0779431 0.25243
0.607736 0.0855116 0.259236
0.700008 0.0931563 0.266224
0.791714 0.100801 0.27332
0.0862287 0.137835 0.24033
0.172885 0.14406 0.247654
0.263432 0.150301 0.254582
0.358679 0.157259 0.260899
0.452567 0.164584 0.267079
0.545632 0.172107 0.27361
0.638209 0.179736 0.280491
0.730541 0.187411 0.287587
0.822324 0.195071 0.294759
0.113939 0.233982 0.260441
0.199756 0.240421 0.26775
0.290532 0.246616 0.275547
0.388174 0.252979 0.282078
0.482643 0.260243 0.287831
0.575784 0.267765 0.294423
0.668421 0.275364 0.301457
0.760815 0.283024 0.30869
0.852689 0.290639 0.315984
0.143679 0.335653 0.281819
0.228702 0.342382 0.288533
0.317662 0.349264 0.295415
0.41532 0.355505 0.301946
0.512932 0.361746 0.308492
0.60647 0.369039 0.315785
0.699367 0.376486 0.323217
0.791348 0.384039 0.330739
0.883925 0.391531 0.338186
0.17467 0.439277 0.304097
0.259495 0.446159 0.31043
0.348516 0.453269 0.31667
0.443046 0.460502 0.322454
0.540658 0.466743 0.328984
0.636393 0.473304 0.337224
0.730159 0.48043 0.345281
0.822614 0.487831 0.35317
0.91545 0.495186 0.360845
0.206104 0.542748 0.326802
0.29099 0.549661 0.333028
0.380453 0.556848 0.3393
0.474434 0.564157 0.345556
0.569757 0.571054 0.351949
0.665568 0.577676 0.359396
0.76022 0.584527 0.367453
0.853284 0.591684 0.37554
0.946517 0.598871 0.383398
0.237842 0.646082 0.349905
0.322881 0.65301 0.35613
0.412726 0.660227 0.362524
0.506294 0.667567 0.369009
0.600641 0.674678 0.375555
0.695506 0.681575 0.382559
0.790173 0.688441 0.390188
0.88365 0.695445 0.398138
0.977249 0.70248 0.406012
0.269749 0.749249 0.373297
0.35491 0.756176 0.379538
0.44509 0.763394 0.386023
0.538415 0.770748 0.392645
0.632212 0.777951 0.399283
0.726375 0.785 0.40618
0.820584 0.791959 0.413474
0.914076 0.798962 0.421134
1 0.80592 0.428885
0.301717 0.852262 0.396796
0.386999 0.859159 0.403052
0.477501 0.866392 0.409628
0.570626 0.873747 0.416327
0.664057 0.88098 0.423056
0.757748 0.888136 0.429923
0.851545 0.895216 0.437049
0.944823 0.902266 0.444495
1 0.909239 0.452079
0.0622721 0.0462043 0.283696
0.148486 0.0525826 0.290639
0.237369 0.0591287 0.297368
0.331472 0.0662242 0.304128
0.425254 0.0734874 0.310674
0.518486 0.0809033 0.31722
0.611231 0.0884413 0.323888
0.703639 0.0960708 0.330739
0.795453 0.103685 0.337667
0.0903182 0.140627 0.304585
0.176471 0.14699 0.311788
0.266163 0.153475 0.318898
0.361105 0.160433 0.325811
0.455451 0.16762 0.332265
0.548959 0.175036 0.338689
0.64181 0.18262 0.345327
0.734295 0.19028 0.352193
0.826185 0.19794 0.359167
0.118364 0.236622 0.325093
0.204135 0.243076 0.332433
0.294179 0.249546 0.340032
0.390127 0.256245 0.347433
0.485466 0.263218 0.35375
0.579324 0.270588 0.359945
0.672251 0.278172 0.366506
0.764782 0.285817 0.373373
0.856687 0.293446 0.380392
0.148043 0.338262 0.3467
0.233249 0.3449 0.353826
0.322744 0.351598 0.36144
0.418647 0.358129 0.36968
0.516258 0.36437 0.376135
0.61062 0.371603 0.381811
0.703593 0.379126 0.388388
0.79559 0.38674 0.395407
0.888136 0.394278 0.402518
0.178775 0.441978 0.368902
0.263615 0.448798 0.375662
0.352667 0.455848 0.382666
0.446357 0.463111 0.389914
0.543969 0.469352 0.396368
0.641489 0.475624 0.402853
0.734874 0.482948 0.410178
0.827131 0.49044 0.417609
0.919844 0.497871 0.424979
0.209949 0.545525 0.391333
0.294759 0.552453 0.397833
0.383993 0.55967 0.404456
0.477226 0.567132 0.410956
0.571679 0.574334 0.416617
0.669184 0.580606 0.423102
0.764752 0.587182 0.431373
0.857862 0.594308 0.439414
0.950988 0.601526 0.447135
0.241505 0.648936 0.414099
0.326421 0.655894 0.420478
0.416037 0.663157 0.426978
0.509163 0.670619 0.433448
0.603052 0.677882 0.439567
0.698222 0.684764 0.445869
0.79382 0.691371 0.453269
0.887831 0.698222 0.461311
0.981582 0.705196 0.46923
0.273304 0.752148 0.437171
0.358328 0.759091 0.443473
0.448325 0.766369 0.449973
0.54136 0.7738 0.456504
0.634882 0.781079 0.462867
0.729046 0.788174 0.469291
0.823713 0.795056 0.476234
0.917739 0.801892 0.483818
1 0.808759 0.491615
0.30518 0.855192 0.460395
0.390341 0.862119 0.466651
0.48072 0.869383 0.473182
0.573632 0.876783 0.479789
0.666896 0.884092 0.48629
0.760525 0.891279 0.492836
0.85449 0.898344 0.499657
0.948135 0.905303 0.50692
1 0.912184 0.514458
0.0659037 0.0491646 0.347723
0.151781 0.0556344 0.354665
0.24036 0.0622721 0.361563
0.334295 0.0693828 0.368582
0.428138 0.0766155 0.375387
0.521553 0.0839704 0.382071
0.614496 0.0914626 0.388769
0.707088 0.0990463 0.395575
0.799039 0.106645 0.402457
0.094255 0.143496 0.368795
0.180087 0.14995 0.375937
0.269322 0.156573 0.383124
0.363836 0.163622 0.390356
0.458167 0.170779 0.397208
0.551949 0.178103 0.40383
0.645106 0.185626 0.410498
0.737819 0.19324 0.417258
0.829847 0.20087 0.424125
0.122606 0.239384 0.389639
0.20824 0.245884 0.396933
0.297887 0.252522 0.40444
0.392889 0.259449 0.412039
0.487922 0.266423 0.419013
0.582223 0.273655 0.425544
0.675608 0.281132 0.432029
0.768414 0.288731 0.438712
0.860487 0.296345 0.445533
0.152407 0.340963 0.411597
0.237705 0.347555 0.41886
0.327337 0.354284 0.42652
0.422309 0.361089 0.434531
0.518227 0.367697 0.441932
0.613474 0.374624 0.448249
0.707149 0.381979 0.454475
0.799451 0.389563 0.461082
0.892119 0.397101 0.467857
0.183062 0.444678 0.434012
0.268025 0.451438 0.441062
0.357443 0.458396 0.448524
0.451484 0.465476 0.456504
0.547311 0.472007 0.464729
0.644831 0.478264 0.471214
0.739055 0.485557 0.476951
0.831403 0.493111 0.483558
0.924102 0.500603 0.490455
0.214054 0.548302 0.456489
0.298924 0.555169 0.463294
0.388281 0.562341 0.47039
0.481407 0.569726 0.477729
0.575021 0.576989 0.484977
0.672526 0.583246 0.491447
0.769863 0.589532 0.497948
0.862608 0.596841 0.505257
0.955535 0.604166 0.512535
0.245426 0.651759 0.479194
0.330312 0.658701 0.485801
0.419898 0.66598 0.492653
0.512718 0.673457 0.499535
0.60589 0.680888 0.506004
0.700191 0.688075 0.51165
0.797482 0.694316 0.51812
0.892393 0.700877 0.52636
0.986175 0.707851 0.534249
0.277073 0.755032 0.502144
0.362036 0.761975 0.508598
0.451957 0.769268 0.515312
0.544701 0.776761 0.522042
0.637766 0.784161 0.52845
0.731487 0.791409 0.534554
0.826459 0.798276 0.540825
0.921431 0.804868 0.548211
1 0.811566 0.556115
0.308827 0.858106 0.5252
0.393942 0.865034 0.531594
0.484215 0.872343 0.538247
0.576913 0.879789 0.54493
0.669871 0.887175 0.551415
0.763226 0.894469 0.557763
0.857221 0.901564 0.564202
0.951308 0.908446 0.571145
1 0.915175 0.578622
0.0695506 0.0521553 0.411643
0.155184 0.0586862 0.418601
0.243549 0.0653697 0.425574
0.337285 0.0725261 0.432776
0.431052 0.0797589 0.439765
0.524544 0.0870832 0.446616
0.617624 0.0945296 0.453437
0.710384 0.102083 0.460288
0.802457 0.109667 0.46714
0.0981155 0.146395 0.432853
0.183719 0.152926 0.439963
0.272679 0.15964 0.447166
0.366842 0.166766 0.454566
0.461006 0.173953 0.461677
0.554833 0.181247 0.468559
0.648173 0.188708 0.475349
0.7411 0.196277 0.482155
0.83331 0.203861 0.488991
0.126696 0.242222 0.453925
0.212192 0.248783 0.461173
0.30161 0.255528 0.468635
0.396078 0.262592 0.47628
0.490669 0.269642 0.483574
0.58497 0.276844 0.490486
0.678614 0.284215 0.497185
0.77171 0.291752 0.503883
0.863996 0.299306 0.510613
0.15668 0.34374 0.476158
0.241978 0.350347 0.483421
0.331594 0.357122 0.491035
0.426032 0.364096 0.498955
0.521004 0.370947 0.506539
0.61593 0.377859 0.513527
0.710079 0.385077 0.520088
0.802808 0.392538 0.526619
0.89575 0.400015 0.533211
0.18735 0.447425 0.498802
0.272435 0.454139 0.505974
0.362066 0.461082 0.513558
0.456077 0.468162 0.521584
0.550988 0.474968 0.529595
0.646799 0.481605 0.537011
0.741894 0.488563 0.543389
0.834958 0.495949 0.549645
0.927962 0.50341 0.556115
0.218265 0.551049 0.521401
0.303243 0.557885 0.52842
0.392844 0.564996 0.535821
0.486168 0.572274 0.543587
0.580148 0.579339 0.551568
0.675853 0.585885 0.559792
0.77319 0.592172 0.566308
0.866773 0.599435 0.57203
0.959792 0.606821 0.57847
0.2495 0.654551 0.544137
0.334462 0.661463 0.550958
0.424155 0.668696 0.558114
0.516976 0.676112 0.565469
0.610056 0.683467 0.572778
0.703517 0.6907 0.579995
0.800809 0.696956 0.58645
0.89749 0.703212 0.592935
0.990906 0.710384 0.600076
0.280995 0.75787 0.567025
0.365988 0.764797 0.573678
0.455924 0.772076 0.580636
0.548547 0.779553 0.587686
0.641306 0.786984 0.594522
0.73431 0.794385 0.600961
0.828412 0.801572 0.606592
0.925078 0.807797 0.613046
1 0.814221 0.621149
0.312642 0.860975 0.590005
0.397726 0.867903 0.596536
0.487984 0.875212 0.603372
0.580514 0.882689 0.610254
0.673198 0.89012 0.616922
0.76611 0.89752 0.623346
0.859663 0.904784 0.62945
0.954055 0.911665 0.635737
1 0.918151 0.643015
0.0731975 0.0551308 0.475441
0.158648 0.0617075 0.482414
0.246876 0.0684672 0.489433
0.340444 0.0756542 0.496727
0.434104 0.0829023 0.503868
0.527581 0.0902113 0.510887
0.620722 0.0976425 0.51783
0.713573 0.105165 0.524758
0.805783 0.112718 0.531655
0.10193 0.14934 0.496757
0.187366 0.155917 0.503853
0.276158 0.162707 0.51107
0.370062 0.169894 0.518547
0.464012 0.177111 0.525826
0.557778 0.184405 0.532906
0.651194 0.191836 0.539879
0.744244 0.199359 0.546792
0.836606 0.206912 0.553643
0.130709 0.245106 0.517998
0.216083 0.251713 0.5252
0.305348 0.258534 0.532631
0.399466 0.26569 0.540322
0.493706 0.272831 0.547768
0.587808 0.280049 0.55494
0.681514 0.287388 0.561883
0.774792 0.29485 0.568719
0.867292 0.302358 0.575479
0.160845 0.346578 0.540429
0.246098 0.353216 0.547692
0.335698 0.360052 0.555261
0.429786 0.367117 0.563104
0.524208 0.374121 0.570764
0.618692 0.381125 0.578073
0.712825 0.388296 0.585
0.805814 0.395666 0.591745
0.899062 0.403067 0.598337
0.191592 0.450233 0.563272
0.276753 0.456931 0.570489
0.366491 0.463874 0.578103
0.460334 0.471 0.586069
0.554726 0.477974 0.593973
0.649592 0.484855 0.601602
0.744366 0.491814 0.608637
0.837858 0.499046 0.615213
0.931319 0.506386 0.621622
0.222492 0.553841 0.586038
0.307591 0.560647 0.593164
0.397391 0.567712 0.600702
0.490791 0.57496 0.608606
0.584741 0.582025 0.616602
0.67953 0.588846 0.624628
0.775174 0.595483 0.632059
0.869612 0.602441 0.638422
0.963333 0.609674 0.644511
0.253651 0.657343 0.60885
0.338704 0.664225 0.615839
0.42858 0.671412 0.623209
0.521538 0.678767 0.630854
0.614801 0.686 0.63859
0.708629 0.693049 0.64654
0.804135 0.69958 0.654765
0.900816 0.705837 0.661234
0.995056 0.712947 0.666804
0.285054 0.760678 0.631769
0.370092 0.767575 0.638575
0.460151 0.774838 0.645762
0.552773 0.782254 0.653101
0.645563 0.789639 0.66041
0.73846 0.796963 0.667689
0.831724 0.804196 0.674907
0.928389 0.810422 0.681346
1 0.816556 0.687678
0.316579 0.863828 0.654719
0.401694 0.870726 0.661387
0.491997 0.878035 0.668421
0.584466 0.885481 0.675532
0.677028 0.892912 0.682551
0.769635 0.900343 0.689387
0.86247 0.907774 0.695842
0.955993 0.914961 0.701488
1 0.921096 0.707835
0.0768444 0.0581216 0.539101
0.162158 0.064744 0.546059
0.250294 0.0715496 0.553124
0.343709 0.0787671 0.560494
0.437247 0.0860304 0.567742
0.530678 0.09337 0.574884
0.623819 0.100786 0.581949
0.716731 0.108278 0.588983
0.809033 0.115801 0.595941
0.10573 0.1523 0.560494
0.191012 0.158907 0.567559
0.279713 0.165759 0.574807
0.373419 0.173007 0.58233
0.46717 0.180255 0.589715
0.560845 0.187579 0.596948
0.654231 0.194995 0.604074
0.747356 0.202502 0.611124
0.839811 0.21001 0.618051
0.134661 0.248035 0.581872
0.219928 0.254673 0.589044
0.309117 0.26157 0.59646
0.402975 0.268788 0.60415
0.496941 0.27599 0.611688
0.590845 0.283238 0.619013
0.684474 0.290578 0.626169
0.777813 0.298009 0.633158
0.870436 0.305455 0.640024
0.16495 0.349493 0.604471
0.250156 0.35613 0.611704
0.339727 0.363027 0.619242
0.43357 0.370184 0.627054
0.527611 0.377264 0.634714
0.621744 0.38436 0.642176
0.715679 0.391546 0.649378
0.808743 0.398871 0.656367
0.902159 0.406195 0.663096
0.195773 0.453071 0.627466
0.280964 0.459785 0.634684
0.370764 0.466758 0.642298
0.464439 0.47393 0.650202
0.558465 0.48101 0.658045
0.652796 0.488029 0.665736
0.747143 0.495094 0.673091
0.840635 0.502297 0.680064
0.93434 0.509514 0.686656
0.226749 0.55668 0.650401
0.311894 0.56347 0.657572
0.401846 0.570535 0.665171
0.495232 0.577768 0.673075
0.589029 0.584894 0.681025
0.683284 0.591867 0.68893
0.777966 0.598749 0.696559
0.872084 0.605692 0.703578
0.966247 0.612757 0.709987
0.257877 0.660197 0.673335
0.343008 0.667033 0.680415
0.433066 0.674189 0.687892
0.526101 0.681498 0.695659
0.61944 0.688701 0.703517
0.713222 0.69575 0.711498
0.807828 0.702556 0.719509
0.9028 0.709178 0.726909
0.997879 0.715953 0.733104
0.289174 0.7635 0.696269
0.374304 0.770367 0.703212
0.464515 0.7776 0.710567
0.557229 0.784985 0.71812
0.650111 0.792294 0.725719
0.743206 0.799512 0.733425
0.836835 0.806546 0.741375
0.931731 0.813062 0.749569
1 0.819165 0.755901
0.320623 0.866667 0.719265
0.405783 0.873549 0.72604
0.496208 0.880827 0.733242
0.588693 0.888243 0.740581
0.681285 0.895644 0.74789
0.773907 0.903014 0.755199
0.866636 0.910353 0.762493
0.959335 0.917601 0.769726
1 0.923445 0.775784
