server/reference_tones/fuji/fuji.cube
# Enhanced with VOXCOLOR algorithms
LUT_3D_SIZE 32
0.011765 0.137255 0.027451
0.041085 0.137564 0.031467
0.070406 0.137874 0.035482
0.099726 0.138183 0.039498
0.129047 0.138492 0.043514
0.158367 0.138801 0.047530
0.198544 0.138755 0.053882
0.240893 0.138638 0.060702
0.283241 0.138521 0.067521
0.325589 0.138403 0.074341
0.367938 0.138286 0.081161
0.412030 0.138451 0.088987
0.456995 0.138757 0.097317
0.501959 0.139064 0.105646
0.546923 0.139370 0.113976
0.591888 0.139676 0.122305
0.633260 0.140181 0.130343
0.671040 0.140885 0.138088
0.708820 0.141589 0.145833
0.746600 0.142293 0.153578
0.784380 0.142997 0.161324
0.817694 0.143708 0.168333
0.842074 0.144436 0.173872
0.866454 0.145163 0.179410
0.890833 0.145891 0.184948
0.915213 0.146618 0.190487
0.937104 0.147282 0.195513
0.946546 0.147630 0.197979
0.955988 0.147977 0.200445
0.965430 0.148325 0.202911
0.974872 0.148672 0.205377
0.984314 0.149020 0.207843
0.011278 0.156077 0.036398
0.038455 0.155269 0.039634
0.065632 0.154461 0.042870
0.092810 0.153654 0.046107
0.119987 0.152846 0.049343
0.147164 0.152038 0.052579
0.185908 0.151386 0.058378
0.226966 0.150766 0.064690
0.268023 0.150145 0.071003
0.309081 0.149525 0.077315
0.350138 0.148904 0.083627
0.393824 0.148774 0.091132
0.438825 0.148888 0.099234
0.483826 0.149003 0.107336
0.528827 0.149117 0.115437
0.573828 0.149232 0.123539
0.615754 0.149632 0.131497
0.654605 0.150318 0.139311
0.693456 0.151003 0.147125
0.732307 0.151689 0.154939
0.771159 0.152375 0.162753
0.805645 0.153091 0.169900
0.831400 0.153867 0.175715
0.857155 0.154643 0.181529
0.882911 0.155419 0.187344
0.908666 0.156195 0.193158
0.931871 0.156897 0.198469
0.942326 0.157226 0.201259
0.952781 0.157556 0.204049
0.963235 0.157885 0.206839
0.973690 0.158214 0.209628
0.984145 0.158544 0.212418
0.010791 0.174899 0.045345
0.035825 0.172974 0.047802
0.060859 0.171049 0.050258
0.085893 0.169124 0.052715
0.110927 0.167200 0.055172
0.135962 0.165275 0.057628
0.173273 0.164018 0.062875
0.213039 0.162894 0.068679
0.252805 0.161770 0.074484
0.292572 0.160647 0.080288
0.332338 0.159523 0.086092
0.375619 0.159097 0.093277
0.420656 0.159019 0.101151
0.465693 0.158942 0.109025
0.510730 0.158865 0.116899
0.555767 0.158787 0.124773
0.598247 0.159083 0.132652
0.638170 0.159750 0.140534
0.678092 0.160418 0.148417
0.718015 0.161086 0.156299
0.757937 0.161753 0.164182
0.793596 0.162473 0.171467
0.820726 0.163298 0.177558
0.847857 0.164123 0.183649
0.874988 0.164948 0.189739
0.902119 0.165773 0.195830
0.926639 0.166512 0.201425
0.938106 0.166823 0.204538
0.949574 0.167134 0.207652
0.961041 0.167445 0.210766
0.972508 0.167756 0.213880
0.983976 0.168067 0.216994
0.010304 0.193720 0.054292
0.033195 0.190679 0.055969
0.056086 0.187637 0.057646
0.078977 0.184595 0.059323
0.101868 0.181553 0.061001
0.124759 0.178512 0.062678
0.160637 0.176649 0.067371
0.199112 0.175022 0.072668
0.237588 0.173395 0.077965
0.276063 0.171768 0.083262
0.314538 0.170141 0.088558
0.357413 0.169420 0.095422
0.402486 0.169150 0.103068
0.447560 0.168881 0.110715
0.492634 0.168612 0.118361
0.537707 0.168343 0.126008
0.580741 0.168533 0.133806
0.621734 0.169183 0.141757
0.662728 0.169832 0.149709
0.703722 0.170482 0.157660
0.744715 0.171132 0.165611
0.781547 0.171856 0.173034
0.810053 0.172729 0.179401
0.838559 0.173603 0.185768
0.867065 0.174476 0.192135
0.895571 0.175350 0.198502
0.921407 0.176127 0.204381
0.933887 0.176420 0.207818
0.946367 0.176713 0.211256
0.958847 0.177005 0.214694
0.971327 0.177298 0.218131
0.983807 0.177591 0.221569
0.009816 0.212542 0.063239
0.030564 0.208383 0.064137
0.051312 0.204225 0.065034
0.072060 0.200066 0.065932
0.092808 0.195907 0.066829
0.113556 0.191748 0.067727
0.148001 0.189280 0.071868
0.185185 0.187150 0.076657
0.222370 0.185020 0.081446
0.259554 0.182890 0.086235
0.296739 0.180760 0.091024
0.339207 0.179742 0.097566
0.384317 0.179281 0.104985
0.429427 0.178821 0.112404
0.474537 0.178360 0.119823
0.519647 0.177899 0.127242
0.563234 0.177984 0.134961
0.605299 0.178616 0.142981
0.647364 0.179247 0.151000
0.689429 0.179878 0.159020
0.731494 0.180510 0.167040
0.769498 0.181238 0.174601
0.799379 0.182161 0.181244
0.829261 0.183083 0.187887
0.859142 0.184005 0.194530
0.889024 0.184927 0.201173
0.916174 0.185742 0.207336
0.929667 0.186016 0.211098
0.943159 0.186291 0.214860
0.956652 0.186566 0.218621
0.970145 0.186840 0.222383
0.983637 0.187115 0.226144
0.009329 0.231364 0.072186
0.027934 0.226088 0.072304
0.046539 0.220812 0.072422
0.065143 0.215537 0.072540
0.083748 0.210261 0.072658
0.102353 0.204985 0.072776
0.135365 0.201911 0.076364
0.171258 0.199278 0.080646
0.207152 0.196645 0.084927
0.243045 0.194011 0.089209
0.278939 0.191378 0.093490
0.321001 0.190065 0.099711
0.366147 0.189413 0.106902
0.411294 0.188760 0.114094
0.456440 0.188107 0.121285
0.501587 0.187455 0.128476
0.545728 0.187435 0.136115
0.588864 0.188048 0.144204
0.632000 0.188662 0.152292
0.675136 0.189275 0.160381
0.718272 0.189888 0.168469
0.757449 0.190621 0.176168
0.788706 0.191592 0.183087
0.819963 0.192563 0.190006
0.851220 0.193534 0.196926
0.882477 0.194505 0.203845
0.910942 0.195357 0.210292
0.925447 0.195613 0.214378
0.939952 0.195870 0.218463
0.954458 0.196126 0.222549
0.968963 0.196382 0.226634
0.983468 0.196639 0.230719
0.008683 0.262218 0.086247
0.025695 0.255720 0.085575
0.042706 0.249221 0.084902
0.059717 0.242723 0.084230
0.076728 0.236224 0.083558
0.093739 0.229726 0.082885
0.125024 0.225649 0.085699
0.159163 0.222056 0.089210
0.193303 0.218463 0.092721
0.227442 0.214870 0.096232
0.261581 0.211277 0.099743
0.302556 0.209332 0.105381
0.346948 0.208210 0.112084
0.391341 0.207089 0.118786
0.435733 0.205967 0.125488
0.480125 0.204846 0.132191
0.524252 0.204611 0.139566
0.568114 0.205262 0.147615
0.611975 0.205913 0.155664
0.655837 0.206564 0.163712
0.699698 0.207215 0.171761
0.739948 0.208084 0.179548
0.772972 0.209389 0.186814
0.805997 0.210695 0.194079
0.839021 0.212000 0.201344
0.872046 0.213305 0.208609
0.902241 0.214468 0.215412
0.918290 0.214913 0.219898
0.934339 0.215359 0.224384
0.950388 0.215805 0.228871
0.966438 0.216250 0.233357
0.982487 0.216696 0.237843
0.008006 0.295479 0.101332
0.023533 0.287736 0.099867
0.039061 0.279994 0.098401
0.054589 0.272252 0.096936
0.070116 0.264509 0.095471
0.085644 0.256767 0.094006
0.115142 0.251607 0.096001
0.147435 0.246963 0.098689
0.179727 0.242320 0.101377
0.212020 0.237676 0.104065
0.244312 0.233032 0.106752
0.284063 0.230387 0.111756
0.327543 0.228742 0.117917
0.371023 0.227096 0.124079
0.414503 0.225450 0.130240
0.457983 0.223805 0.136402
0.501982 0.223332 0.143476
0.546500 0.224031 0.151463
0.591018 0.224731 0.159451
0.635536 0.225431 0.167438
0.680054 0.226131 0.175425
0.721356 0.227163 0.183292
0.756227 0.228860 0.190917
0.791097 0.230557 0.198542
0.825968 0.232254 0.206167
0.860838 0.233951 0.213792
0.892846 0.235478 0.220964
0.910546 0.236154 0.225866
0.928245 0.236831 0.230769
0.945944 0.237507 0.235671
0.963644 0.238184 0.240574
0.981343 0.238860 0.245476
0.007328 0.328739 0.116416
0.021372 0.319753 0.114158
0.035416 0.310767 0.111900
0.049460 0.301781 0.109642
0.063504 0.292794 0.107384
0.077548 0.283808 0.105126
0.105260 0.277565 0.106304
0.135706 0.271871 0.108169
0.166152 0.266176 0.110033
0.196597 0.260482 0.111898
0.227043 0.254787 0.113762
0.265570 0.251443 0.118131
0.308138 0.249273 0.123751
0.350706 0.247103 0.129372
0.393273 0.244933 0.134992
0.435841 0.242763 0.140613
0.479712 0.242052 0.147386
0.524887 0.242801 0.155312
0.570061 0.243549 0.163238
0.615236 0.244298 0.171164
0.660410 0.245047 0.179090
0.702765 0.246242 0.187036
0.739481 0.248330 0.195020
0.776198 0.250419 0.203005
0.812914 0.252507 0.210990
0.849630 0.254596 0.218975
0.883452 0.256488 0.226516
0.902801 0.257395 0.231834
0.922151 0.258302 0.237153
0.941500 0.259210 0.242472
0.960850 0.260117 0.247791
0.980199 0.261025 0.253110
0.006650 0.362000 0.131500
0.019211 0.351770 0.128450
0.031771 0.341540 0.125399
0.044332 0.331310 0.122348
0.056892 0.321079 0.119298
0.069452 0.310849 0.116247
0.095378 0.303523 0.116607
0.123977 0.296778 0.117648
0.152576 0.290033 0.118689
0.181175 0.283288 0.119731
0.209774 0.276543 0.120772
0.247077 0.272498 0.124506
0.288733 0.269804 0.129585
0.330388 0.267110 0.134665
0.372044 0.264416 0.139744
0.413699 0.261722 0.144824
0.457442 0.260773 0.151296
0.503273 0.261571 0.159161
0.549104 0.262368 0.167025
0.594935 0.263165 0.174890
0.640766 0.263963 0.182754
0.684174 0.265321 0.190779
0.722736 0.267801 0.199124
0.761298 0.270281 0.207468
0.799860 0.272761 0.215813
0.838423 0.275241 0.224158
0.874058 0.277498 0.232068
0.895057 0.278636 0.237803
0.916057 0.279774 0.243538
0.937056 0.280912 0.249273
0.958056 0.282051 0.255008
0.979055 0.283189 0.260743
0.005973 0.395260 0.146585
0.017050 0.383786 0.142741
0.028126 0.372312 0.138898
0.039203 0.360838 0.135055
0.050280 0.349365 0.131211
0.061357 0.337891 0.127368
0.085496 0.329482 0.126909
0.112249 0.321686 0.127127
0.139001 0.313890 0.127346
0.165753 0.306094 0.127564
0.192505 0.298298 0.127782
0.228585 0.293553 0.130881
0.269328 0.290335 0.135419
0.310071 0.287117 0.139958
0.350814 0.283898 0.144496
0.391557 0.280680 0.149035
0.435172 0.279494 0.155206
0.481660 0.280340 0.163009
0.528147 0.281186 0.170813
0.574634 0.282033 0.178616
0.621122 0.282879 0.186419
0.665583 0.284400 0.194523
0.705991 0.287272 0.203227
0.746399 0.290143 0.211932
0.786807 0.293015 0.220636
0.827215 0.295886 0.229341
0.864663 0.298508 0.237620
0.887313 0.299877 0.243771
0.909962 0.301246 0.249922
0.932612 0.302615 0.256074
0.955262 0.303984 0.262225
0.977911 0.305353 0.268377
0.005529 0.431706 0.162922
0.015530 0.419701 0.158643
0.025531 0.407697 0.154365
0.035532 0.395693 0.150087
0.045533 0.383688 0.145808
0.055535 0.371684 0.141530
0.078094 0.362519 0.140443
0.103165 0.353922 0.139995
0.128237 0.345325 0.139546
0.153308 0.336728 0.139098
0.178379 0.328131 0.138649
0.213110 0.322719 0.141136
0.252670 0.318899 0.145091
0.292231 0.315080 0.149045
0.331791 0.311261 0.153000
0.371352 0.307442 0.156954
0.414487 0.305898 0.162725
0.461197 0.306629 0.170313
0.507907 0.307360 0.177900
0.554617 0.308091 0.185487
0.601327 0.308822 0.193075
0.646484 0.310374 0.201106
0.688535 0.313567 0.210023
0.730586 0.316760 0.218941
0.772637 0.319953 0.227859
0.814688 0.323146 0.236776
0.853793 0.326076 0.245287
0.878171 0.327688 0.251766
0.902550 0.329300 0.258245
0.926928 0.330913 0.264724
0.951306 0.332525 0.271203
0.975685 0.334137 0.277682
0.005201 0.469744 0.179885
0.014331 0.457566 0.175351
0.023460 0.445387 0.170816
0.032590 0.433209 0.166282
0.041719 0.421031 0.161748
0.050849 0.408853 0.157213
0.071932 0.399096 0.155594
0.095405 0.389822 0.154557
0.118878 0.380549 0.153520
0.142351 0.371276 0.152483
0.165825 0.362002 0.151446
0.199144 0.355939 0.153333
0.237387 0.351480 0.156681
0.275629 0.347022 0.160030
0.313872 0.342563 0.163379
0.352114 0.338105 0.166728
0.394593 0.336143 0.172049
0.441309 0.336677 0.179344
0.488025 0.337211 0.186638
0.534741 0.337745 0.193932
0.581457 0.338279 0.201226
0.627132 0.339795 0.209108
0.670724 0.343275 0.218166
0.714316 0.346754 0.227223
0.757909 0.350234 0.236281
0.801501 0.353714 0.245338
0.842185 0.356923 0.254013
0.868332 0.358785 0.260775
0.894478 0.360646 0.267537
0.920624 0.362508 0.274299
0.946770 0.364369 0.281061
0.972917 0.366231 0.287823
0.004873 0.507782 0.196848
0.013131 0.495430 0.192058
0.021389 0.483078 0.187268
0.029647 0.470726 0.182477
0.037906 0.458374 0.177687
0.046164 0.446022 0.172897
0.065769 0.435672 0.170744
0.087645 0.425723 0.169118
0.109520 0.415773 0.167493
0.131395 0.405823 0.165867
0.153270 0.395874 0.164242
0.185178 0.389159 0.165529
0.222103 0.384061 0.168272
0.259027 0.378963 0.171015
0.295952 0.373866 0.173758
0.332877 0.368768 0.176501
0.374700 0.366388 0.181373
0.421422 0.366725 0.188374
0.468144 0.367062 0.195376
0.514866 0.367399 0.202377
0.561588 0.367736 0.209378
0.607780 0.369216 0.217111
0.652913 0.372982 0.226309
0.698047 0.376748 0.235506
0.743180 0.380515 0.244703
0.788314 0.384281 0.253900
0.830578 0.387771 0.262739
0.858492 0.389882 0.269784
0.886406 0.391993 0.276829
0.914320 0.394103 0.283874
0.942235 0.396214 0.290919
0.970149 0.398325 0.297964
0.004546 0.545820 0.213811
0.011932 0.533294 0.208765
0.019319 0.520768 0.203719
0.026705 0.508243 0.198673
0.034092 0.495717 0.193626
0.041478 0.483191 0.188580
0.059607 0.472249 0.185894
0.079884 0.461623 0.183680
0.100161 0.450997 0.181466
0.120438 0.440371 0.179252
0.140716 0.429746 0.177038
0.171213 0.422379 0.177725
0.206819 0.416642 0.179862
0.242426 0.410905 0.182000
0.278033 0.405168 0.184137
0.313639 0.399431 0.186275
0.354806 0.396633 0.190697
0.401534 0.396773 0.197405
0.448262 0.396913 0.204113
0.494990 0.397053 0.210822
0.541718 0.397193 0.217530
0.588428 0.398637 0.225114
0.635103 0.402690 0.234451
0.681778 0.406743 0.243788
0.728452 0.410795 0.253125
0.775127 0.414848 0.262462
0.818970 0.418618 0.271465
0.848652 0.420979 0.278793
0.878334 0.423339 0.286121
0.908016 0.425699 0.293449
0.937699 0.428059 0.300777
0.967381 0.430419 0.308105
0.004218 0.583858 0.230774
0.010733 0.571158 0.225472
0.017248 0.558459 0.220170
0.023763 0.545759 0.214868
0.030278 0.533060 0.209566
0.036793 0.520360 0.204263
0.053444 0.508826 0.201044
0.072124 0.497523 0.198242
0.090803 0.486221 0.195439
0.109482 0.474919 0.192637
0.128161 0.463617 0.189834
0.157247 0.455599 0.189921
0.191536 0.449223 0.191453
0.225824 0.442847 0.192985
0.260113 0.436471 0.194516
0.294402 0.430094 0.196048
0.334913 0.426878 0.200021
0.381647 0.426821 0.206436
0.428381 0.426764 0.212851
0.475114 0.426707 0.219266
0.521848 0.426650 0.225681
0.569076 0.428059 0.233117
0.617292 0.432398 0.242594
0.665508 0.436737 0.252071
0.713724 0.441076 0.261547
0.761940 0.445415 0.271024
0.807362 0.449466 0.280190
0.838812 0.452075 0.287802
0.870262 0.454685 0.295413
0.901713 0.457294 0.303024
0.933163 0.459904 0.310635
0.964613 0.462513 0.318246
0.004157 0.619992 0.246917
0.010019 0.607597 0.241621
0.015880 0.595202 0.236324
0.021741 0.582808 0.231028
0.027603 0.570413 0.225731
0.033464 0.558019 0.220435
0.048942 0.546364 0.216952
0.066344 0.534856 0.213833
0.083745 0.523349 0.210713
0.101147 0.511842 0.207593
0.118549 0.500335 0.204473
0.146432 0.491975 0.204152
0.179557 0.485189 0.205231
0.212682 0.478402 0.206310
0.245807 0.471616 0.207389
0.278932 0.464830 0.208468
0.318779 0.461274 0.212050
0.365350 0.460949 0.218137
0.411920 0.460623 0.224223
0.458491 0.460298 0.230309
0.505061 0.459973 0.236395
0.552553 0.461210 0.243595
0.601886 0.465574 0.253021
0.651219 0.469937 0.262447
0.700552 0.474300 0.271873
0.749885 0.478664 0.281299
0.796482 0.482745 0.290440
0.829398 0.485418 0.298155
0.862314 0.488091 0.305870
0.895230 0.490764 0.313586
0.928146 0.493437 0.321301
0.961062 0.496110 0.329016
0.004363 0.654221 0.262239
0.009789 0.642610 0.257210
0.015215 0.630999 0.252181
0.020641 0.619388 0.247153
0.026067 0.607777 0.242124
0.031492 0.596166 0.237095
0.046100 0.584863 0.233619
0.062545 0.573622 0.230453
0.078989 0.562381 0.227287
0.095434 0.551140 0.224120
0.111878 0.539899 0.220954
0.138770 0.531507 0.220418
0.170884 0.524540 0.221197
0.202999 0.517572 0.221976
0.235114 0.510605 0.222756
0.267229 0.503638 0.223535
0.306405 0.499821 0.226785
0.352643 0.499156 0.232507
0.398881 0.498491 0.238228
0.445119 0.497826 0.243950
0.491357 0.497161 0.249672
0.538858 0.498092 0.256548
0.588884 0.502218 0.265732
0.638910 0.506343 0.274917
0.688937 0.510468 0.284101
0.738963 0.514594 0.293286
0.786331 0.518456 0.302213
0.820411 0.521007 0.309853
0.854490 0.523557 0.317493
0.888569 0.526108 0.325134
0.922649 0.528659 0.332774
0.956728 0.531209 0.340414
0.004570 0.688450 0.277561
0.009560 0.677622 0.272800
0.014550 0.666795 0.268039
0.019540 0.655967 0.263278
0.024530 0.645140 0.258516
0.029521 0.634313 0.253755
0.043258 0.623362 0.250285
0.058746 0.612388 0.247073
0.074233 0.601413 0.243860
0.089720 0.590438 0.240648
0.105208 0.579463 0.237436
0.131107 0.571039 0.236684
0.162212 0.563891 0.237164
0.193316 0.556742 0.237643
0.224421 0.549594 0.238122
0.255526 0.542445 0.238601
0.294032 0.538369 0.241520
0.339937 0.537364 0.246877
0.385842 0.536359 0.252234
0.431748 0.535354 0.257591
0.477653 0.534349 0.262948
0.525163 0.534975 0.269501
0.575883 0.538862 0.278444
0.626602 0.542749 0.287387
0.677321 0.546636 0.296330
0.728040 0.550524 0.305273
0.776180 0.554168 0.313986
0.811423 0.556596 0.321551
0.846666 0.559024 0.329117
0.881909 0.561452 0.336682
0.917152 0.563880 0.344247
0.952395 0.566309 0.351812
0.004776 0.722679 0.292883
0.009331 0.712635 0.288389
0.013885 0.702591 0.283896
0.018440 0.692547 0.279402
0.022994 0.682504 0.274909
0.027549 0.672460 0.270416
0.040417 0.661862 0.266951
0.054947 0.651153 0.263693
0.069477 0.640444 0.260434
0.084007 0.629736 0.257176
0.098537 0.619027 0.253917
0.123444 0.610571 0.252950
0.153539 0.603241 0.253130
0.183634 0.595912 0.253309
0.213729 0.588583 0.253489
0.243824 0.581253 0.253668
0.281658 0.576916 0.256254
0.327231 0.575571 0.261247
0.372803 0.574226 0.266240
0.418376 0.572882 0.271232
0.463949 0.571537 0.276225
0.511469 0.571857 0.282454
0.562881 0.575506 0.291155
0.614293 0.579155 0.299857
0.665705 0.582804 0.308558
0.717117 0.586453 0.317260
0.766029 0.589879 0.325759
0.802435 0.592185 0.333250
0.838842 0.594490 0.340740
0.875248 0.596796 0.348230
0.911654 0.599102 0.355720
0.948061 0.601408 0.363210
0.004982 0.756908 0.308204
0.009101 0.747647 0.303979
0.013220 0.738387 0.299753
0.017339 0.729127 0.295527
0.021458 0.719867 0.291302
0.025577 0.710607 0.287076
0.037575 0.700361 0.283617
0.051148 0.689919 0.280313
0.064721 0.679476 0.277008
0.078293 0.669033 0.273703
0.091866 0.658591 0.270398
0.115781 0.650103 0.269216
0.144866 0.642592 0.269096
0.173951 0.635082 0.268976
0.203036 0.627571 0.268855
0.232121 0.620061 0.268735
0.269284 0.615463 0.270989
0.314524 0.613779 0.275617
0.359765 0.612094 0.280245
0.405005 0.610410 0.284873
0.450245 0.608725 0.289501
0.497774 0.608739 0.295407
0.549879 0.612150 0.303867
0.601984 0.615561 0.312327
0.654090 0.618972 0.320787
0.706195 0.622383 0.329247
0.755877 0.625590 0.337533
0.793447 0.627773 0.344948
0.831017 0.629957 0.352363
0.868587 0.632140 0.359778
0.906157 0.634324 0.367193
0.943727 0.636507 0.374608
0.005334 0.788015 0.322304
0.009097 0.779607 0.318409
0.012860 0.771199 0.314514
0.016623 0.762792 0.310619
0.020386 0.754384 0.306725
0.024149 0.745976 0.302830
0.035462 0.736301 0.299512
0.048284 0.726372 0.296310
0.061106 0.716443 0.293108
0.073929 0.706514 0.289906
0.086751 0.696586 0.286704
0.109883 0.688310 0.285458
0.138170 0.680862 0.285190
0.166456 0.673413 0.284923
0.194743 0.665965 0.284655
0.223029 0.658516 0.284387
0.259627 0.653813 0.286412
0.304537 0.651856 0.290731
0.349447 0.649898 0.295049
0.394357 0.647940 0.299368
0.439267 0.645983 0.303686
0.486707 0.645688 0.309277
0.539208 0.648720 0.317415
0.591709 0.651752 0.325552
0.644210 0.654783 0.333690
0.696711 0.657815 0.341827
0.746867 0.660662 0.349814
0.785301 0.662587 0.357045
0.823735 0.664512 0.364276
0.862170 0.666436 0.371506
0.900604 0.668361 0.378737
0.939038 0.670286 0.385968
0.005978 0.812877 0.333959
0.009544 0.805460 0.330521
0.013110 0.798043 0.327084
0.016676 0.790625 0.323646
0.020242 0.783208 0.320209
0.023808 0.775791 0.316771
0.034806 0.767121 0.313864
0.047291 0.758202 0.311062
0.059776 0.749282 0.308261
0.072262 0.740362 0.305460
0.084747 0.731442 0.302658
0.107516 0.723869 0.301651
0.135427 0.716968 0.301541
0.163338 0.710068 0.301431
0.191248 0.703168 0.301320
0.219159 0.696267 0.301210
0.255406 0.691769 0.303214
0.299989 0.689671 0.307332
0.344572 0.687574 0.311450
0.389155 0.685477 0.315568
0.433738 0.683380 0.319686
0.480894 0.682772 0.324983
0.533197 0.685141 0.332636
0.585499 0.687511 0.340288
0.637801 0.689881 0.347941
0.690103 0.692251 0.355594
0.740139 0.694458 0.363110
0.778838 0.695850 0.369938
0.817538 0.697243 0.376767
0.856238 0.698636 0.383596
0.894938 0.700029 0.390424
0.933638 0.701422 0.397253
0.006621 0.837740 0.345613
0.009990 0.831313 0.342633
0.013359 0.824886 0.339653
0.016728 0.818459 0.336673
0.020097 0.812032 0.333693
0.023467 0.805605 0.330712
0.034151 0.797942 0.328215
0.046299 0.790031 0.325815
0.058447 0.782120 0.323414
0.070594 0.774209 0.321013
0.082742 0.766299 0.318613
0.105148 0.759427 0.317844
0.132684 0.753075 0.317891
0.160219 0.746723 0.317939
0.187754 0.740370 0.317986
0.215290 0.734018 0.318033
0.251185 0.729724 0.320016
0.295442 0.727487 0.323934
0.339698 0.725250 0.327851
0.383954 0.723013 0.331769
0.428210 0.720777 0.335687
0.475082 0.719855 0.340688
0.527185 0.721563 0.347856
0.579289 0.723271 0.355025
0.631393 0.724978 0.362193
0.683496 0.726686 0.369361
0.733410 0.728253 0.376406
0.772375 0.729114 0.382832
0.811341 0.729975 0.389258
0.850307 0.730836 0.395685
0.889272 0.731697 0.402111
0.928238 0.732558 0.408537
0.007264 0.862603 0.357268
0.010436 0.857166 0.354745
0.013608 0.851730 0.352222
0.016781 0.846293 0.349699
0.019953 0.840856 0.347177
0.023125 0.835420 0.344654
0.033496 0.828762 0.342567
0.045306 0.821860 0.340567
0.057117 0.814959 0.338567
0.068927 0.808057 0.336567
0.080737 0.801155 0.334567
0.102781 0.794985 0.334037
0.129941 0.789181 0.334242
0.157100 0.783377 0.334447
0.184260 0.777573 0.334652
0.211420 0.771769 0.334857
0.246964 0.767679 0.336818
0.290894 0.765303 0.340535
0.334823 0.762926 0.344252
0.378752 0.760550 0.347970
0.422682 0.758174 0.351687
0.469269 0.756938 0.356393
0.521174 0.757984 0.363077
0.573079 0.759030 0.369761
0.624984 0.760076 0.376445
0.676889 0.761122 0.383129
0.726681 0.762048 0.389702
0.765913 0.762377 0.395726
0.805144 0.762706 0.401750
0.844375 0.763035 0.407774
0.883606 0.763364 0.413797
0.922837 0.763693 0.419821
0.007907 0.887466 0.368923
0.010882 0.883020 0.366857
0.013858 0.878573 0.364792
0.016833 0.874127 0.362726
0.019809 0.869681 0.360661
0.022784 0.865234 0.358595
0.032841 0.859583 0.356918
0.044314 0.853690 0.355319
0.055787 0.847797 0.353720
0.067260 0.841904 0.352121
0.078733 0.836012 0.350521
0.100413 0.830544 0.350230
0.127198 0.825288 0.350592
0.153982 0.820032 0.350955
0.180766 0.814776 0.351317
0.207550 0.809520 0.351680
0.242744 0.805634 0.353619
0.286346 0.803119 0.357136
0.329948 0.800603 0.360653
0.373551 0.798087 0.364170
0.417153 0.795571 0.367687
0.463457 0.794021 0.372098
0.515163 0.794405 0.378298
0.566869 0.794789 0.384497
0.618575 0.795173 0.390696
0.670282 0.795557 0.396896
0.719953 0.795844 0.402999
0.759450 0.795641 0.408620
0.798947 0.795438 0.414241
0.838443 0.795235 0.419863
0.877940 0.795032 0.425484
0.917437 0.794829 0.431105
0.008550 0.910514 0.379957
0.011340 0.906988 0.378319
0.014130 0.903462 0.376680
0.016919 0.899936 0.375042
0.019709 0.896409 0.373404
0.022499 0.892883 0.371766
0.032266 0.888195 0.370486
0.043428 0.883274 0.369278
0.054591 0.878354 0.368070
0.065753 0.873433 0.366862
0.076915 0.868512 0.365654
0.098258 0.863750 0.365612
0.124691 0.859068 0.366153
0.151124 0.854385 0.366694
0.177556 0.849703 0.367235
0.203989 0.845020 0.367776
0.238841 0.841384 0.369725
0.282113 0.838795 0.373083
0.325385 0.836205 0.376440
0.368657 0.833615 0.379797
0.411928 0.831025 0.383155
0.457933 0.829229 0.387312
0.509403 0.829020 0.393069
0.560874 0.828810 0.398825
0.612344 0.828601 0.404582
0.663815 0.828392 0.410339
0.713328 0.828102 0.416010
0.753052 0.827414 0.421256
0.792777 0.826725 0.426501
0.832501 0.826037 0.431747
0.872226 0.825348 0.436993
0.911950 0.824660 0.442238
0.009193 0.924490 0.387887
0.011854 0.921533 0.386526
0.014514 0.918576 0.385166
0.017175 0.915619 0.383805
0.019836 0.912662 0.382445
0.022496 0.909705 0.381084
0.032094 0.905768 0.380137
0.043078 0.901634 0.379273
0.054063 0.897500 0.378408
0.065047 0.893366 0.377544
0.076032 0.889232 0.376680
0.097162 0.885199 0.376941
0.123364 0.881215 0.377765
0.149567 0.877232 0.378589
0.175769 0.873249 0.379413
0.201972 0.869266 0.380237
0.236534 0.866107 0.382350
0.279455 0.863772 0.385752
0.322377 0.861437 0.389155
0.365298 0.859103 0.392557
0.408220 0.856768 0.395960
0.453851 0.855058 0.400069
0.504900 0.854598 0.405592
