server/reference_tones/fuji/fuji.cube
# Enhanced with VOXCOLOR algorithms
LUT_3D_SIZE 8
DOMAIN_MIN 0.000000 0.000000 0.000000
DOMAIN_MAX 0.903226 0.903226 0.903226
0.011765 0.137255 0.027451
0.129047 0.138492 0.043514
0.283241 0.138521 0.067521
0.456995 0.138757 0.097317
0.633260 0.140181 0.130343
0.784380 0.142997 0.161324
0.890833 0.145891 0.184948
0.955988 0.147977 0.200445
0.009816 0.212542 0.063239
0.092808 0.195907 0.066829
0.222370 0.185020 0.081446
0.384317 0.179281 0.104985
0.563234 0.177984 0.134961
0.731494 0.180510 0.167040
0.859142 0.184005 0.194530
0.943159 0.186291 0.214860
0.007328 0.328739 0.116416
0.063504 0.292794 0.107384
0.166152 0.266176 0.110033
0.308138 0.249273 0.123751
0.479712 0.242052 0.147386
0.660410 0.245047 0.179090
0.812914 0.252507 0.210990
0.922151 0.258302 0.237153
0.005201 0.469744 0.179885
0.041719 0.421031 0.161748
0.118878 0.380549 0.153520
0.237387 0.351480 0.156681
0.394593 0.336143 0.172049
0.581457 0.338279 0.201226
0.757909 0.350234 0.236281
0.894478 0.360646 0.267537
0.004157 0.619992 0.246917
0.027603 0.570413 0.225731
0.083745 0.523349 0.210713
0.179557 0.485189 0.205231
0.318779 0.461274 0.212050
0.505061 0.459973 0.236395
0.700552 0.474300 0.271873
0.862314 0.488091 0.305870
0.004982 0.756908 0.308204
0.021458 0.719867 0.291302
0.064721 0.679476 0.277008
0.144866 0.642592 0.269096
0.269284 0.615463 0.270989
0.450245 0.608725 0.289501
0.654090 0.618972 0.320787
0.831017 0.629957 0.352363
0.007264 0.862603 0.357268
0.019953 0.840856 0.347177
0.057117 0.814959 0.338567
0.129941 0.789181 0.334242
0.246964 0.767679 0.336818
0.422682 0.758174 0.351687
0.624984 0.760076 0.376445
0.805144 0.762706 0.401750
0.009836 0.938465 0.395817
0.019962 0.928915 0.391486
0.053535 0.916646 0.388747
0.122038 0.903363 0.389376
0.234227 0.890829 0.394974
0.404511 0.882510 0.408765
0.601656 0.878756 0.428694
0.780711 0.874859 0.448707
0.038198 0.137517 0.129942
0.147083 0.135279 0.128493
0.293349 0.133381 0.135637
0.460532 0.132639 0.149606
0.632251 0.133592 0.168273
0.781575 0.136448 0.187600
0.888037 0.139970 0.202537
0.953900 0.142803 0.211715
0.025677 0.210619 0.137321
0.106716 0.194551 0.130530
0.233121 0.183073 0.133846
0.391145 0.176054 0.145884
0.565887 0.173216 0.164820
0.730835 0.174469 0.187363
0.857004 0.177302 0.207239
0.941143 0.179261 0.221624
0.015890 0.321285 0.166100
0.073788 0.291064 0.152689
0.177343 0.266893 0.149317
0.318881 0.249921 0.155909
0.488345 0.240840 0.171798
0.665274 0.240846 0.195641
0.814076 0.245303 0.220272
0.921376 0.248715 0.240347
0.009087 0.456969 0.210039
0.048695 0.417456 0.191534
0.129382 0.382323 0.181425
0.250534 0.355113 0.181285
0.408363 0.338547 0.192000
0.592151 0.336523 0.214901
0.763083 0.343085 0.242875
0.895434 0.348854 0.267832
0.005370 0.604722 0.262906
0.031513 0.564330 0.242902
0.091908 0.523971 0.228401
0.192093 0.489502 0.222382
0.334323 0.465861 0.227202
0.519168 0.460410 0.246974
0.708594 0.467797 0.275873
0.864742 0.475239 0.303702
0.005045 0.743381 0.316046
0.022943 0.712062 0.299612
0.069195 0.677073 0.286047
0.153011 0.644174 0.278544
0.280662 0.618603 0.279905
0.461472 0.609035 0.295466
0.660668 0.612921 0.321489
0.833015 0.617785 0.347965
0.006775 0.852768 0.360856
0.019923 0.833355 0.350156
0.058114 0.810313 0.341465
0.132240 0.787048 0.337155
0.250406 0.766863 0.339359
0.425760 0.755799 0.352357
0.625828 0.753495 0.373675
0.804461 0.751966 0.395707
0.009074 0.932792 0.397182
0.019336 0.923585 0.391659
0.052398 0.912083 0.388143
0.119854 0.899549 0.388189
0.230614 0.887307 0.393151
0.399462 0.877966 0.405722
0.596263 0.871917 0.423869
0.776823 0.865788 0.442497
0.071579 0.134939 0.280023
0.171242 0.131355 0.264930
0.309726 0.128782 0.257162
0.470581 0.127591 0.255217
0.637420 0.128012 0.257373
0.783559 0.130246 0.260750
0.888192 0.133377 0.261633
0.953146 0.136040 0.258984
0.051006 0.205988 0.260727
0.128772 0.191236 0.244245
0.251322 0.179776 0.235769
0.404866 0.171845 0.234408
0.574617 0.167515 0.238907
0.734777 0.167115 0.247009
0.857644 0.168705 0.253844
0.940332 0.169999 0.257089
0.033619 0.312463 0.262967
0.091958 0.287315 0.243678
0.195632 0.265610 0.232204
0.336106 0.248816 0.228756
0.502708 0.237987 0.233030
0.674512 0.234688 0.244214
0.817831 0.235683 0.256648
0.921637 0.236631 0.266096
0.020120 0.444197 0.282133
0.061902 0.412420 0.260648
0.145703 0.382360 0.245833
0.269285 0.357224 0.239152
0.427409 0.339575 0.241457
0.607047 0.333003 0.253881
0.770738 0.333625 0.270698
0.897258 0.334656 0.285689
0.011002 0.590059 0.313363
0.039413 0.557500 0.291847
0.104191 0.523669 0.275052
0.209117 0.493176 0.265482
0.354603 0.469961 0.265062
0.537336 0.459859 0.276940
0.719080 0.459588 0.296221
0.867886 0.460398 0.315178
0.007302 0.730232 0.350047
0.026492 0.704036 0.331979
0.076107 0.674517 0.316811
0.164228 0.645877 0.307239
0.295712 0.621963 0.305538
0.476146 0.609113 0.315801
0.669411 0.605965 0.334577
0.835531 0.604324 0.354194
0.007363 0.843023 0.383227
0.020849 0.825863 0.370364
0.060287 0.805770 0.359712
0.136152 0.785126 0.353414
0.255943 0.766258 0.353320
0.430933 0.753394 0.362898
0.627998 0.746561 0.379635
0.803959 0.740698 0.397382
0.008963 0.926989 0.411215
0.019034 0.918198 0.403285
0.051516 0.907481 0.397462
0.118048 0.895684 0.395307
0.227607 0.883714 0.398133
0.395105 0.873365 0.408415
0.591316 0.865132 0.424116
0.772902 0.856953 0.440722
0.110558 0.132020 0.455007
0.201704 0.128236 0.431857
0.332836 0.125696 0.413793
0.487332 0.124429 0.399522
0.648663 0.124425 0.387683
0.790247 0.125791 0.376196
0.891373 0.127965 0.362848
0.954020 0.129888 0.347372
0.084574 0.200645 0.416454
0.158224 0.187143 0.393265
0.276194 0.175909 0.375439
0.424602 0.167364 0.362362
0.588690 0.161778 0.353183
0.743089 0.159696 0.346371
0.861283 0.159764 0.338741
0.941107 0.160127 0.328925
0.059953 0.303767 0.395968
0.117334 0.282172 0.371711
0.219804 0.262262 0.352754
0.358097 0.245496 0.339361
0.520988 0.233010 0.331411
0.686931 0.226488 0.328424
0.823867 0.224054 0.326532
0.923127 0.222631 0.322929
0.038472 0.432545 0.390865
0.081147 0.406050 0.365908
0.166658 0.379648 0.345678
0.291371 0.355892 0.331362
0.448766 0.336916 0.323675
0.623596 0.325829 0.323506
0.779613 0.320775 0.326787
0.899757 0.317463 0.329249
0.021676 0.576917 0.398072
0.051561 0.549800 0.373878
0.119653 0.520838 0.353314
0.228151 0.493222 0.338370
0.375803 0.469775 0.330551
0.555727 0.454850 0.332193
0.729693 0.447272 0.339577
0.871080 0.441993 0.347263
0.012407 0.718224 0.413620
0.032523 0.695707 0.392669
0.084859 0.670382 0.374216
0.176424 0.644913 0.360546
0.310766 0.621811 0.353534
0.490130 0.605351 0.356336
0.677531 0.595485 0.365959
0.837620 0.587805 0.376666
0.009582 0.833937 0.429800
0.023180 0.818413 0.413549
0.063458 0.800547 0.399274
0.140456 0.781788 0.389055
0.261109 0.763600 0.384629
0.435146 0.748697 0.388986
0.629299 0.737599 0.399628
0.802856 0.727684 0.411381
0.009942 0.921439 0.444078
0.019519 0.912865 0.432511
0.051117 0.902627 0.422781
0.116355 0.891233 0.416612
0.224261 0.879266 0.415449
0.390054 0.867885 0.421850
0.585743 0.857693 0.433823
0.768537 0.847613 0.447027
0.152881 0.130475 0.632676
0.237587 0.126925 0.608040
0.362173 0.124723 0.586120
0.510188 0.123636 0.565845
0.665257 0.123446 0.546139
0.801052 0.124050 0.525245
0.897262 0.125123 0.501941
0.956510 0.126076 0.476722
0.124212 0.196091 0.586402
0.193644 0.183257 0.561222
0.306545 0.172186 0.538789
0.449229 0.163280 0.518598
0.607150 0.156813 0.500007
0.755246 0.153314 0.481741
0.867831 0.151868 0.462007
0.943611 0.151138 0.440505
0.093431 0.296334 0.551866
0.148751 0.276296 0.525589
0.248562 0.257073 0.502105
0.383342 0.239913 0.481538
0.541650 0.225846 0.463775
0.701488 0.216507 0.448319
0.831865 0.211072 0.432934
0.925966 0.207513 0.416286
0.063554 0.422826 0.528116
0.105870 0.398633 0.501159
0.191167 0.373728 0.476833
0.315041 0.350013 0.455940
0.470219 0.329173 0.438971
0.639934 0.313936 0.426442
0.788856 0.304074 0.415875
0.902891 0.297134 0.404807
0.037489 0.565946 0.513840
0.067962 0.541277 0.487378
0.137543 0.514489 0.463077
0.247398 0.487645 0.442410
0.395186 0.462694 0.426503
0.571650 0.443022 0.417002
0.738927 0.429263 0.411411
0.874043 0.418965 0.406163
0.020716 0.707939 0.507537
0.041312 0.687094 0.483506
0.095048 0.663699 0.461057
0.188131 0.639286 0.442140
0.323228 0.615421 0.428348
0.500538 0.595100 0.422187
0.683199 0.579533 0.421194
0.838828 0.566807 0.420950
0.013831 0.825976 0.503987
0.027289 0.811079 0.483728
0.067581 0.794095 0.464757
0.144355 0.775829 0.449177
0.264195 0.757179 0.438732
0.436275 0.739981 0.436205
0.628272 0.725275 0.439108
0.800761 0.711854 0.442621
0.012381 0.916459 0.500702
0.021222 0.907703 0.484545
0.051504 0.897392 0.469574
0.114730 0.885825 0.457743
0.220015 0.873390 0.450720
0.383378 0.860894 0.451374
0.578819 0.849011 0.457829
0.763500 0.837098 0.465538
0.191797 0.130418 0.777114
0.274350 0.127508 0.757840
0.394396 0.125909 0.739819
0.536382 0.125268 0.722242
0.684728 0.125256 0.704263
0.813891 0.125570 0.684173
0.904384 0.125982 0.660907
0.959745 0.126253 0.635113
0.163815 0.193120 0.738215
0.231234 0.180546 0.717559
0.339928 0.169632 0.697816
0.476972 0.160667 0.678564
0.628487 0.153833 0.659278
0.770032 0.149524 0.638623
0.876569 0.147013 0.615355
0.947524 0.145296 0.589665
0.129597 0.290980 0.704311
0.183666 0.270814 0.681690
0.280419 0.251166 0.659894
0.410785 0.233112 0.638901
0.563724 0.217580 0.618538
0.717496 0.206171 0.598019
0.841723 0.198580 0.575909
0.930388 0.193240 0.551722
0.092881 0.415682 0.675190
0.134896 0.391072 0.650807
0.218614 0.365266 0.627187
0.339710 0.339883 0.604780
0.490991 0.316449 0.583836
0.655558 0.297709 0.564333
0.798735 0.284331 0.544629
0.907361 0.274509 0.523322
0.057684 0.557734 0.650444
0.088598 0.532515 0.625137
0.157913 0.504608 0.600417
0.266537 0.475664 0.577300
0.411933 0.447399 0.556558
0.584485 0.423177 0.539112
0.747123 0.404761 0.523067
0.877771 0.390460 0.505848
0.032407 0.700047 0.629621
0.053425 0.678581 0.604891
0.107096 0.654056 0.580550
0.199244 0.627634 0.558209
0.332320 0.600667 0.539180
0.506587 0.576139 0.525297
0.686545 0.556147 0.514128
0.840142 0.539228 0.501621
0.020649 0.819771 0.610073
0.033941 0.804175 0.587224
0.073330 0.786129 0.564723
0.148107 0.766264 0.544584
0.264827 0.745399 0.528473
0.433664 0.725467 0.518815
0.624798 0.707888 0.512705
0.798337 0.691294 0.504923
0.016978 0.912459 0.590250
0.025051 0.902970 0.569984
0.053668 0.891818 0.549941
0.113992 0.879243 0.532119
0.215215 0.865599 0.518272
0.374916 0.851713 0.511384
0.570382 0.838251 0.509674
0.757973 0.824283 0.508186
0.218688 0.129664 0.866470
0.302643 0.128217 0.854862
0.420581 0.127657 0.844102
0.558093 0.127713 0.833628
0.700665 0.128133 0.822810
0.823942 0.128631 0.810194
0.909591 0.129022 0.794692
0.961889 0.129060 0.776501
0.194044 0.190583 0.842363
0.262476 0.178647 0.829585
0.369051 0.168228 0.816936
0.501746 0.159571 0.804171
0.647550 0.152832 0.790938
0.783070 0.148356 0.776089
0.884238 0.145456 0.758438
0.950911 0.143184 0.737817
0.159648 0.286564 0.819341
0.214791 0.266180 0.804472
0.309916 0.246056 0.789418
0.436561 0.227232 0.774175
0.584327 0.210630 0.758613
0.732395 0.197915 0.741900
0.851266 0.188971 0.722696
0.935011 0.182284 0.700355
0.119262 0.409674 0.797106
0.162631 0.384139 0.779856
0.245527 0.356812 0.762284
0.363901 0.329320 0.744664
0.510953 0.303262 0.727116
0.670587 0.281644 0.709254
0.809039 0.265549 0.689471
0.912890 0.253170 0.666393
0.077440 0.550780 0.775296
0.109955 0.524212 0.755897
0.179311 0.493967 0.736070
0.286348 0.461741 0.716472
0.428671 0.429386 0.697573
0.597397 0.400723 0.679607
0.756558 0.378159 0.660523
0.883510 0.359883 0.637845
0.044887 0.693487 0.753121
0.067193 0.670618 0.732338
0.121102 0.643574 0.711100
0.212135 0.613569 0.690593
0.342741 0.582127 0.671744
0.514069 0.552784 0.655492
0.692250 0.528260 0.638907
0.844420 0.506688 0.617825
0.028692 0.814855 0.728904
0.042441 0.798038 0.707675
0.081443 0.777952 0.686066
0.154546 0.755276 0.665705
0.268265 0.730967 0.647894
0.434018 0.707440 0.634176
0.624581 0.686435 0.621010
0.799234 0.665953 0.602871
0.023066 0.909422 0.701701
0.030870 0.899007 0.680784
0.058489 0.886662 0.659195
0.116475 0.872575 0.638573
0.213894 0.857104 0.620379
0.369705 0.841218 0.607007
0.564719 0.825602 0.596749
0.754841 0.808952 0.584800
0.232168 0.127676 0.912069
0.318623 0.128292 0.907249
0.435931 0.128958 0.903024
0.570696 0.129685 0.899189
0.709373 0.130478 0.895450
0.828847 0.131336 0.890955
0.911735 0.132070 0.884741
0.962465 0.132049 0.876319
0.212363 0.187323 0.901998
0.282747 0.176464 0.896606
0.388552 0.166872 0.891251
0.518434 0.158817 0.885911
0.660093 0.152490 0.880464
0.791171 0.148303 0.874285
0.888631 0.145591 0.866221
0.952533 0.143308 0.855300
0.180126 0.281415 0.891871
0.237269 0.261362 0.885179
0.332067 0.241355 0.878188
0.456353 0.222388 0.870956
0.600157 0.205373 0.863446
0.743536 0.192002 0.855149
0.858156 0.182291 0.844722
0.938167 0.174803 0.830805
0.138909 0.402816 0.881381
0.184643 0.377059 0.872860
0.268094 0.349015 0.863786
0.385115 0.320263 0.854305
0.529016 0.292397 0.844471
0.684311 0.268459 0.833916
0.818430 0.249881 0.821085
0.917958 0.235132 0.804184
0.093405 0.543064 0.870109
0.128662 0.515884 0.859402
0.199669 0.484168 0.847888
0.306815 0.449523 0.835893
0.447483 0.413779 0.823637
0.612918 0.380744 0.811012
0.768148 0.353471 0.796184
0.890665 0.330733 0.776751
0.055736 0.686612 0.856708
0.080522 0.662983 0.843559
0.136707 0.634199 0.829438
0.229210 0.601289 0.815007
0.360018 0.565664 0.800770
0.529758 0.530677 0.787006
0.704925 0.499867 0.771356
0.853157 0.472314 0.750451
0.036191 0.810244 0.838629
0.051445 0.792711 0.823221
0.092296 0.771170 0.806810
0.167046 0.746067 0.790379
0.281719 0.718199 0.774707
0.446917 0.689699 0.760481
0.635374 0.662990 0.745105
0.807241 0.637091 0.724553
0.029390 0.907017 0.814153
0.037759 0.896062 0.797061
0.066165 0.882838 0.778688
0.124560 0.867335 0.760056
0.221548 0.849766 0.742094
0.375643 0.830934 0.726174
0.568786 0.811847 0.711259
0.758233 0.791729 0.694169
