server/reference_tones/fuji/fuji.cube
# Enhanced with VOXCOLOR algorithms
LUT_3D_SIZE 5
DOMAIN_MIN 0.000000 0.000000 0.000000
DOMAIN_MAX 0.903226 0.903226 0.903226
0.011765 0.137255 0.027451
0.240893 0.138638 0.060702
0.546923 0.139370 0.113976
0.817694 0.143708 0.168333
0.955988 0.147977 0.200445
0.008006 0.295479 0.101332
0.147435 0.246963 0.098689
0.414503 0.225450 0.130240
0.721356 0.227163 0.183292
0.928245 0.236831 0.230769
0.004546 0.545820 0.213811
0.079884 0.461623 0.183680
0.278033 0.405168 0.184137
0.588428 0.398637 0.225114
0.878334 0.423339 0.286121
0.005334 0.788015 0.322304
0.048284 0.726372 0.296310
0.194743 0.665965 0.284655
0.486707 0.645688 0.309277
0.823735 0.664512 0.364276
0.009836 0.938465 0.395817
0.042728 0.919993 0.389268
0.173983 0.896795 0.391590
0.449768 0.880887 0.412827
0.780711 0.874859 0.448707
0.062518 0.135876 0.237604
0.265934 0.130413 0.221536
0.552946 0.128888 0.226485
0.815159 0.132463 0.239303
0.953197 0.137894 0.243461
0.031761 0.284274 0.229365
0.171937 0.245663 0.205825
0.433221 0.222126 0.208669
0.727936 0.216412 0.231157
0.926836 0.219700 0.253263
0.012536 0.520987 0.278193
0.097626 0.460912 0.245443
0.306536 0.412001 0.236143
0.611792 0.394577 0.257720
0.882047 0.400123 0.294507
0.006177 0.765650 0.348786
0.054370 0.718737 0.321727
0.211876 0.669613 0.308698
0.505436 0.643864 0.324242
0.826944 0.642923 0.362101
0.008924 0.928453 0.406403
0.041237 0.911571 0.395165
0.169236 0.890499 0.393898
0.440935 0.872237 0.410434
0.773885 0.859138 0.440709
0.131963 0.131141 0.546215
0.311242 0.125518 0.506029
0.579030 0.123721 0.475197
0.826189 0.124990 0.445573
0.955212 0.127697 0.409973
0.083507 0.270935 0.479766
0.217510 0.238689 0.438025
0.468145 0.213654 0.408808
0.745587 0.200475 0.389024
0.929391 0.196827 0.369171
0.039383 0.499515 0.456027
0.129210 0.453667 0.412505
0.344332 0.409426 0.382284
0.640406 0.380031 0.370149
0.887266 0.367488 0.367982
0.013898 0.745854 0.459786
0.065996 0.708678 0.422871
0.232457 0.667263 0.396641
0.524911 0.633883 0.391483
0.829434 0.614045 0.402428
0.011007 0.918879 0.470038
0.041203 0.902753 0.446712
0.164688 0.882523 0.432242
0.431098 0.861653 0.435923
0.766054 0.842520 0.454559
0.200323 0.130335 0.807715
0.368273 0.126483 0.777377
0.617232 0.125769 0.748497
0.844874 0.126179 0.715483
0.960444 0.126561 0.673011
0.147457 0.261780 0.746491
0.274559 0.230014 0.710533
0.510599 0.202903 0.675634
0.769544 0.184633 0.639310
0.936256 0.175657 0.596250
0.080593 0.484865 0.696225
0.170368 0.438975 0.654408
0.380800 0.389843 0.614971
0.664477 0.348622 0.579845
0.894348 0.323585 0.543793
0.030023 0.731581 0.654572
0.083191 0.693522 0.612137
0.247893 0.647546 0.573677
0.533140 0.603077 0.546669
0.830777 0.569527 0.523915
0.018276 0.911556 0.614827
0.045314 0.893491 0.578162
0.160065 0.870605 0.545794
0.416483 0.845751 0.528269
0.756831 0.820828 0.522244
0.232168 0.127676 0.912069
0.403428 0.128787 0.904019
0.641406 0.130077 0.897373
0.855057 0.131538 0.889659
0.962465 0.132049 0.876319
0.189465 0.254346 0.894409
0.318907 0.223254 0.883244
0.544784 0.195725 0.871443
0.788511 0.175968 0.858050
0.942215 0.164846 0.837286
0.115598 0.472704 0.875897
0.210343 0.423480 0.858660
0.416007 0.366856 0.839779
0.688048 0.315233 0.819403
0.905041 0.279648 0.790387
0.048131 0.720508 0.852890
0.106609 0.677834 0.828196
0.272195 0.621102 0.802023
0.552438 0.560782 0.777081
0.842939 0.510029 0.743916
0.029390 0.907017 0.814153
0.057001 0.886377 0.783413
0.168975 0.858641 0.750929
0.418072 0.826201 0.722294
0.758233 0.791729 0.694169
